;FLAVOR:Marlin
;TIME:7138
;Filament used: 1.20563m
;Layer height: 0.05
;Generated with Cura_SteamEngine 1.2.3
M140 S60
M104 S200
M109 S200
G28
G1 Z50.00 F400
G92 E0
G1 F200 E3
G92 E0
M132 X Y Z A
M907 X100 Y100 Z50 A100
;LAYER_COUNT:157
;LAYER:-12
G1 F3600 E-3
M107
M204 S2000
G0 F3600 X21.482 Y21.1 Z0.24
G1 F3600 E0
G1 F450 X-21.495 Y21.1 E3.43061
G1 X-22.557 Y21.062 E3.51544
G1 X-23.645 Y20.941 E3.60282
G1 X-24.667 Y20.753 E3.68577
G1 X-25.691 Y20.485 E3.77026
G1 X-26.73 Y20.131 E3.85788
G1 X-27.689 Y19.724 E3.94104
G1 X-28.647 Y19.232 E4.02701
G1 X-29.554 Y18.678 E4.11185
G1 X-30.424 Y18.056 E4.19722
G1 X-31.239 Y17.378 E4.28184
G1 X-31.997 Y16.647 E4.3659
G1 X-32.722 Y15.838 E4.45262
G1 X-33.378 Y14.989 E4.53826
G1 X-33.956 Y14.116 E4.62184
G1 X-34.483 Y13.178 E4.70772
G1 X-34.932 Y12.222 E4.79203
G1 X-35.317 Y11.215 E4.87809
G1 X-35.624 Y10.197 E4.96297
G1 X-35.855 Y9.165 E5.04738
G1 X-36.012 Y8.099 E5.13339
G1 X-36.089 Y7.047 E5.21759
G1 X-36.1 Y6.509 E5.26055
G1 X-36.1 Y-6.503 E6.29922
G1 X-36.062 Y-7.558 E6.38349
G1 X-35.941 Y-8.647 E6.47096
G1 X-35.753 Y-9.667 E6.55375
G1 X-35.485 Y-10.691 E6.63824
G1 X-35.129 Y-11.736 E6.72637
G1 X-34.724 Y-12.689 E6.80902
G1 X-34.232 Y-13.647 E6.89499
G1 X-33.678 Y-14.554 E6.97983
G1 X-33.056 Y-15.424 E7.0652
G1 X-32.378 Y-16.239 E7.14982
G1 X-31.647 Y-16.997 E7.23388
G1 X-30.838 Y-17.722 E7.3206
G1 X-29.989 Y-18.378 E7.40624
G1 X-29.116 Y-18.956 E7.48982
G1 X-28.178 Y-19.483 E7.5757
G1 X-27.222 Y-19.932 E7.66001
G1 X-26.215 Y-20.317 E7.74607
G1 X-25.197 Y-20.624 E7.83095
G1 X-24.165 Y-20.855 E7.91536
G1 X-23.099 Y-21.012 E8.00137
G1 X-22.047 Y-21.089 E8.08557
G1 X-21.482 Y-21.1 E8.13068
G1 X21.495 Y-21.1 E11.56129
G1 X22.557 Y-21.062 E11.64612
G1 X23.645 Y-20.941 E11.7335
G1 X24.667 Y-20.753 E11.81645
G1 X25.691 Y-20.485 E11.90095
G1 X26.73 Y-20.131 E11.98857
G1 X27.689 Y-19.724 E12.07173
G1 X28.647 Y-19.232 E12.15769
G1 X29.554 Y-18.678 E12.24253
G1 X30.424 Y-18.056 E12.3279
G1 X31.239 Y-17.378 E12.41253
G1 X31.997 Y-16.647 E12.49659
G1 X32.722 Y-15.838 E12.5833
G1 X33.378 Y-14.989 E12.66895
G1 X33.956 Y-14.116 E12.75252
G1 X34.483 Y-13.178 E12.83841
G1 X34.932 Y-12.222 E12.92272
G1 X35.317 Y-11.215 E13.00877
G1 X35.624 Y-10.197 E13.09365
G1 X35.854 Y-9.168 E13.17782
G1 X36.012 Y-8.099 E13.26407
G1 X36.089 Y-7.047 E13.34827
G1 X36.1 Y-6.509 E13.39123
G1 X36.1 Y6.503 E14.4299
G1 X36.062 Y7.558 E14.51417
G1 X35.941 Y8.645 E14.60148
G1 X35.753 Y9.667 E14.68443
G1 X35.485 Y10.691 E14.76892
G1 X35.131 Y11.73 E14.85654
G1 X34.724 Y12.689 E14.9397
G1 X34.243 Y13.626 E15.02377
G1 X33.671 Y14.564 E15.11147
G1 X33.056 Y15.424 E15.19587
G1 X32.378 Y16.239 E15.28049
G1 X31.647 Y16.997 E15.36455
G1 X30.838 Y17.722 E15.45127
G1 X29.994 Y18.374 E15.5364
G1 X29.116 Y18.956 E15.62049
G1 X28.178 Y19.483 E15.70637
G1 X27.222 Y19.932 E15.79068
G1 X26.215 Y20.317 E15.87674
G1 X25.197 Y20.624 E15.96161
G1 X24.165 Y20.855 E16.04603
G1 X23.099 Y21.012 E16.13204
G1 X22.047 Y21.089 E16.21624
G1 X21.482 Y21.1 E16.26135
G0 F3600 X20.8 Y21.1
G1 F450 X20.8 Y-21.1 E19.62994
G0 F3600 X19.2 Y-21.1
G1 F450 X19.2 Y21.1 E22.99852
G0 F3600 X17.6 Y21.1
G1 F450 X17.6 Y-21.1 E26.36711
G0 F3600 X16 Y-21.1
G1 F450 X16 Y21.1 E29.7357
G0 F3600 X14.4 Y21.1
G1 F450 X14.4 Y-21.1 E33.10428
G0 F3600 X12.8 Y-21.1
G1 F450 X12.8 Y21.1 E36.47287
G0 F3600 X11.2 Y21.1
G1 F450 X11.2 Y-21.1 E39.84146
G0 F3600 X9.6 Y-21.1
G1 F450 X9.6 Y21.1 E43.21004
G0 F3600 X8 Y21.1
G1 F450 X8 Y-21.1 E46.57863
G0 F3600 X6.4 Y-21.1
G1 F450 X6.4 Y21.1 E49.94722
G0 F3600 X4.8 Y21.1
G1 F450 X4.8 Y-21.1 E53.3158
G0 F3600 X3.2 Y-21.1
G1 F450 X3.2 Y21.1 E56.68439
G0 F3600 X1.6 Y21.1
G1 F450 X1.6 Y-21.1 E60.05298
G0 F3600 X0.00 Y-21.1
G1 F450 X0.00 Y21.1 E63.42156
G0 F3600 X-1.6 Y21.1
G1 F450 X-1.6 Y-21.1 E66.79015
G0 F3600 X-3.2 Y-21.1
G1 F450 X-3.2 Y21.1 E70.15874
G0 F3600 X-4.8 Y21.1
G1 F450 X-4.8 Y-21.1 E73.52732
G0 F3600 X-6.4 Y-21.1
G1 F450 X-6.4 Y21.1 E76.89591
G0 F3600 X-8 Y21.1
G1 F450 X-8 Y-21.1 E80.26449
G0 F3600 X-9.6 Y-21.1
G1 F450 X-9.6 Y21.1 E83.63308
G0 F3600 X-11.2 Y21.1
G1 F450 X-11.2 Y-21.1 E87.00167
G0 F3600 X-12.8 Y-21.1
G1 F450 X-12.8 Y21.1 E90.37025
G0 F3600 X-14.4 Y21.1
G1 F450 X-14.4 Y-21.1 E93.73884
G0 F3600 X-16 Y-21.1
G1 F450 X-16 Y21.1 E97.10743
G0 F3600 X-17.6 Y21.1
G1 F450 X-17.6 Y-21.1 E100.47601
G0 F3600 X-19.2 Y-21.1
G1 F450 X-19.2 Y21.1 E103.8446
G0 F3600 X-20.8 Y21.1
G1 F450 X-20.8 Y-21.1 E107.21319
G0 F3600 X-22.4 Y-21.064
G1 F450 X-22.4 Y21.067 E110.57626
G0 F3600 X-24 Y20.875
G1 F450 X-24 Y-20.88 E113.90933
G0 F3600 X-25.6 Y-20.503
G1 F450 X-25.6 Y20.508 E117.183
G0 F3600 X-27.2 Y19.931
G1 F450 X-27.2 Y-19.941 E120.36576
G0 F3600 X-28.8 Y-19.134
G1 F450 X-28.8 Y19.138 E123.4208
G0 F3600 X-30.4 Y18.073
G1 F450 X-30.4 Y-18.061 E126.30517
G0 F3600 X-32 Y-16.631
G1 F450 X-32 Y16.643 E128.96124
G0 F3600 X-33.6 Y14.653
G1 F450 X-33.6 Y-14.664 E131.30145
G0 F3600 X-35.2 Y-11.528
G1 F450 X-35.2 Y11.521 E133.14132
G0 F3600 X22.4 Y21.064
G1 F450 X22.4 Y-21.067 E136.5044
G0 F3600 X24 Y-20.875
G1 F450 X24 Y20.88 E139.83747
G0 F3600 X25.6 Y20.503
G1 F450 X25.6 Y-20.508 E143.11114
G0 F3600 X27.2 Y-19.931
G1 F450 X27.2 Y19.941 E146.2939
G0 F3600 X28.8 Y19.134
G1 F450 X28.8 Y-19.138 E149.34893
G0 F3600 X30.4 Y-18.073
G1 F450 X30.4 Y18.061 E152.23331
G0 F3600 X32 Y16.631
G1 F450 X32 Y-16.643 E154.88938
G0 F3600 X33.6 Y-14.653
G1 F450 X33.6 Y14.664 E157.22959
G0 F3600 X35.2 Y11.528
G1 F450 X35.2 Y-11.521 E159.06946
G0 F3600 X-.113 Y21.1
;TIME_ELAPSED:278.088000
;LAYER:-11
M140 S60
G1 F3600 E156.06946
G0 F3600 X-.113 Y21.1 Z0.315
;TYPE:SUPPORT
G1 F3600 E159.06946
G1 F450 X1.301 Y21.1 E159.10473
G1 X-33.934 Y-14.135 E160.34774
G1 X-33.677 Y-14.554 E160.36001
G1 X-33.369 Y-14.985 E160.37322
G1 X2.715 Y21.1 E161.6462
G1 X4.129 Y21.1 E161.68147
G1 X-32.755 Y-15.784 E162.98265
G1 X-32.377 Y-16.239 E162.99741
G1 X-32.092 Y-16.535 E163.00766
G1 X5.543 Y21.1 E164.33534
G1 X6.957 Y21.1 E164.37061
G1 X-31.378 Y-17.236 E165.723
G1 X-30.837 Y-17.722 E165.74114
G1 X-30.618 Y-17.89 E165.74802
G1 X8.372 Y21.1 E167.1235
G1 X9.786 Y21.1 E167.15877
G1 X-29.809 Y-18.495 E168.55559
G1 X-29.115 Y-18.956 E168.57638
G1 X-28.948 Y-19.049 E168.58114
G1 X11.2 Y21.1 E169.99749
G1 X12.614 Y21.1 E170.03276
G1 X-28.034 Y-19.549 E171.46675
G1 X-27.22 Y-19.931 E171.48918
G1 X-27.063 Y-19.992 E171.49338
G1 X14.028 Y21.1 E172.94299
G1 X15.443 Y21.1 E172.97829
G1 X-26.029 Y-20.372 E174.44133
G1 X-25.196 Y-20.624 E174.46304
G1 X-24.926 Y-20.684 E174.46994
G1 X16.857 Y21.1 E175.94396
G1 X18.271 Y21.1 E175.97924
G1 X-23.744 Y-20.916 E177.46145
G1 X-23.098 Y-21.012 E177.47774
G1 X-22.471 Y-21.057 E177.49342
G1 X19.685 Y21.1 E178.9806
G1 X21.1 Y21.1 E179.0159
G1 X-21.1 Y-21.1 E180.50462
G1 X-19.685 Y-21.1 E180.53992
G1 X22.471 Y21.057 E182.0271
G1 X23.098 Y21.012 E182.04278
G1 X23.744 Y20.916 E182.05907
G1 X-18.271 Y-21.1 E183.54128
G1 X-16.857 Y-21.1 E183.57656
G1 X24.926 Y20.684 E185.05058
G1 X25.196 Y20.624 E185.05748
G1 X26.029 Y20.372 E185.07919
G1 X-15.443 Y-21.1 E186.54223
G1 X-14.028 Y-21.1 E186.57752
G1 X27.063 Y19.992 E188.02714
G1 X27.22 Y19.931 E188.03134
G1 X28.034 Y19.549 E188.05377
G1 X-12.614 Y-21.1 E189.48775
G1 X-11.2 Y-21.1 E189.52303
G1 X28.948 Y19.049 E190.93937
G1 X29.115 Y18.956 E190.94414
G1 X29.809 Y18.495 E190.96493
G1 X-9.786 Y-21.1 E192.36175
G1 X-8.372 Y-21.1 E192.39702
G1 X30.618 Y17.89 E193.7725
G1 X30.837 Y17.722 E193.77938
G1 X31.378 Y17.236 E193.79752
G1 X-6.957 Y-21.1 E195.14991
G1 X-5.543 Y-21.1 E195.18518
G1 X32.092 Y16.535 E196.51286
G1 X32.377 Y16.239 E196.52311
G1 X32.755 Y15.784 E196.53787
G1 X-4.129 Y-21.1 E197.83905
G1 X-2.715 Y-21.1 E197.87432
G1 X33.369 Y14.985 E199.1473
G1 X33.67 Y14.564 E199.16021
G1 X33.933 Y14.134 E199.17278
G1 X-1.301 Y-21.1 E200.41576
G1 X0.113 Y-21.1 E200.45103
G1 X34.445 Y13.232 E201.66218
G1 X34.723 Y12.689 E201.6774
G1 X34.9 Y12.273 E201.68868
G1 X1.527 Y-21.1 E202.866
G1 X2.941 Y-21.1 E202.90127
G1 X35.293 Y11.252 E204.04258
G1 X35.484 Y10.69 E204.05738
G1 X35.621 Y10.166 E204.07089
G1 X4.355 Y-21.1 E205.17389
G1 X5.769 Y-21.1 E205.20916
G1 X35.875 Y9.005 E206.27121
G1 X35.94 Y8.645 E206.28034
G1 X36.039 Y7.755 E206.30268
G1 X7.184 Y-21.1 E207.32061
G1 X8.598 Y-21.1 E207.35589
G1 X36.099 Y6.4 E208.32604
G1 X36.099 Y4.986 E208.36131
G1 X10.012 Y-21.1 E209.28158
G1 X11.426 Y-21.1 E209.31686
G1 X36.099 Y3.572 E210.18725
G1 X36.099 Y2.158 E210.22252
G1 X12.841 Y-21.1 E211.04301
G1 X14.255 Y-21.1 E211.07828
G1 X36.099 Y0.743 E211.84887
G1 X36.099 Y-.67 E211.88411
G1 X15.669 Y-21.1 E212.60484
G1 X17.083 Y-21.1 E212.64011
G1 X36.099 Y-2.084 E213.31095
G1 X36.099 Y-3.498 E213.34622
G1 X18.497 Y-21.1 E213.96718
G1 X19.912 Y-21.1 E214.00248
G1 X36.099 Y-4.912 E214.57354
G1 X36.099 Y-6.327 E214.60883
G1 X21.326 Y-21.1 E215.12999
G0 F3600 X21.494 Y-21.1
G1 F450 X22.556 Y-21.061 E215.1565
G1 X22.807 Y-21.033 E215.1628
G1 X36.032 Y-7.807 E215.62937
G1 X36.011 Y-8.099 E215.63667
G1 X35.853 Y-9.168 E215.66363
G1 X35.786 Y-9.468 E215.67129
G1 X24.465 Y-20.789 E216.07067
G1 X24.666 Y-20.752 E216.07577
G1 X25.69 Y-20.484 E216.10217
G1 X26.44 Y-20.228 E216.12194
G1 X35.231 Y-11.437 E216.43207
G1 X34.931 Y-12.221 E216.45301
G1 X34.482 Y-13.178 E216.47938
G1 X33.955 Y-14.116 E216.50622
G1 X33.933 Y-14.149 E216.50721
G1 X29.173 Y-18.91 E216.67515
G0 F3600 X-.113 Y21.1
G1 F450 X-34.445 Y-13.232 E217.8863
G1 X-34.723 Y-12.689 E217.90152
G1 X-34.9 Y-12.273 E217.91279
G1 X-1.527 Y21.1 E219.09012
G1 X-2.941 Y21.1 E219.12539
G1 X-35.293 Y-11.252 E220.26669
G1 X-35.484 Y-10.69 E220.2815
G1 X-35.621 Y-10.166 E220.29501
G1 X-4.355 Y21.1 E221.398
G1 X-5.769 Y21.1 E221.43328
G1 X-35.874 Y-9.004 E222.49529
G1 X-35.94 Y-8.647 E222.50435
G1 X-36.039 Y-7.755 E222.52674
G1 X-7.184 Y21.1 E223.54468
G1 X-8.598 Y21.1 E223.57995
G1 X-36.099 Y-6.4 E224.5501
G1 X-36.099 Y-4.986 E224.58537
G1 X-10.012 Y21.1 E225.50565
G1 X-11.426 Y21.1 E225.54092
G1 X-36.099 Y-3.572 E226.41131
G1 X-36.099 Y-2.158 E226.44658
G1 X-12.841 Y21.1 E227.26707
G1 X-14.255 Y21.1 E227.30234
G1 X-36.099 Y-.743 E228.07293
G1 X-36.099 Y0.67 E228.10818
G1 X-15.669 Y21.1 E228.8289
G1 X-17.083 Y21.1 E228.86417
G1 X-36.099 Y2.084 E229.53501
G1 X-36.099 Y3.498 E229.57029
G1 X-18.497 Y21.1 E230.19124
G1 X-19.912 Y21.1 E230.22654
G1 X-36.099 Y4.912 E230.7976
G1 X-36.099 Y6.327 E230.8329
G1 X-21.326 Y21.1 E231.35405
G1 X-21.494 Y21.1 E231.35825
G1 X-22.556 Y21.061 E231.38475
G1 X-22.807 Y21.033 E231.39105
G1 X-36.032 Y7.807 E231.85762
G1 X-36.011 Y8.099 E231.86492
G1 X-35.853 Y9.164 E231.89178
G1 X-35.785 Y9.468 E231.89955
G1 X-24.465 Y20.789 E232.29891
G1 X-24.666 Y20.752 E232.30401
G1 X-25.69 Y20.484 E232.33041
G1 X-26.44 Y20.228 E232.35018
G1 X-35.231 Y11.437 E232.66031
G1 X-34.931 Y12.221 E232.68125
G1 X-34.482 Y13.178 E232.70762
G1 X-33.955 Y14.116 E232.73446
G1 X-33.933 Y14.149 E232.73545
G1 X-29.173 Y18.91 E232.90339
G0 F3600 X-23.127 Y21.2
;TIME_ELAPSED:673.931301
;LAYER:-10
G1 F3600 E229.90339
G0 F3600 X-23.127 Y21.2 Z0.365
G1 F3600 E232.90339
G1 F600 X23.199 Y21.2 E233.28859
G1 X24.193 Y21.053 E233.29694
G1 X25.259 Y20.815 E233.30603
G1 X25.308 Y20.8 E233.30645
G1 X-25.278 Y20.8 E233.72708
G1 X-25.755 Y20.675 E233.73118
G1 X-26.564 Y20.4 E233.73828
G1 X26.559 Y20.4 E234.18
G1 X27.295 Y20.119 E234.18655
G1 X27.548 Y20 E234.18888
G1 X-27.55 Y20 E234.64702
G1 X-27.78 Y19.902 E234.6491
G1 X-28.369 Y19.6 E234.6546
G1 X28.38 Y19.6 E235.12647
G1 X29.091 Y19.2 E235.13325
G1 X-29.081 Y19.2 E235.61696
G1 X-29.67 Y18.84 E235.6227
G1 X-29.727 Y18.799 E235.62328
G1 X29.711 Y18.8 E236.11751
G1 X30.115 Y18.532 E236.12154
G1 X30.285 Y18.4 E236.12333
G1 X-30.287 Y18.399 E236.62699
G1 X-30.543 Y18.216 E236.6296
G1 X-30.804 Y17.999 E236.63243
G1 X30.804 Y18 E237.1447
G1 X30.966 Y17.875 E237.1464
G1 X31.273 Y17.6 E237.14983
G1 X-31.284 Y17.599 E237.66999
G1 X-31.371 Y17.526 E237.67094
G1 X-31.711 Y17.199 E237.67486
G1 X31.72 Y17.2 E238.20229
G1 X31.777 Y17.149 E238.20292
G1 X32.113 Y16.8 E238.20695
G1 X-32.127 Y16.799 E238.74111
G1 X-32.151 Y16.775 E238.74139
G1 X-32.488 Y16.399 E238.74559
G1 X32.498 Y16.4 E239.28595
G1 X32.527 Y16.37 E239.2863
G1 X32.835 Y16 E239.2903
G1 X-32.846 Y15.999 E239.83644
G1 X-32.876 Y15.965 E239.83682
G1 X-33.159 Y15.599 E239.84067
G1 X33.168 Y15.6 E240.39218
G1 X33.22 Y15.538 E240.39285
G1 X33.461 Y15.2 E240.3963
G1 X-33.468 Y15.199 E240.95282
G1 X-33.533 Y15.114 E240.95371
G1 X-33.742 Y14.799 E240.95685
G1 X33.747 Y14.8 E241.51802
G1 X33.84 Y14.67 E241.51935
G1 X34.004 Y14.4 E241.52198
G1 X-34.008 Y14.399 E242.0875
G1 X-34.135 Y14.206 E242.08942
G1 X-34.252 Y13.999 E242.0914
G1 X34.248 Y14 E242.66098
G1 X34.421 Y13.717 E242.66374
G1 X34.481 Y13.6 E242.66483
G1 X-34.477 Y13.599 E243.23822
G1 X-34.658 Y13.276 E243.2413
G1 X-34.695 Y13.199 E243.24201
G1 X34.686 Y13.2 E243.81891
G1 X34.891 Y12.8 E243.82265
G1 X-34.882 Y12.799 E244.40282
G1 X-35.07 Y12.399 E244.40649
G1 X35.063 Y12.4 E244.98965
G1 X35.233 Y12 E244.99326
G1 X-35.232 Y11.999 E245.57918
G1 X-35.385 Y11.599 E245.58274
G1 X35.387 Y11.6 E246.17122
G1 X35.523 Y11.2 E246.17473
G1 X-35.531 Y11.199 E246.76554
G1 X-35.652 Y10.799 E246.76902
G1 X35.659 Y10.8 E247.36197
G1 X35.675 Y10.754 E247.36238
G1 X35.767 Y10.4 E247.36542
G1 X-35.773 Y10.399 E247.96028
G1 X-35.815 Y10.258 E247.9615
G1 X-35.873 Y9.999 E247.96371
G1 X35.872 Y10 E248.56027
G1 X35.945 Y9.723 E248.56265
G1 X35.967 Y9.6 E248.56369
G1 X-35.963 Y9.599 E249.16179
G1 X-36.052 Y9.199 E249.1652
G1 X36.041 Y9.2 E249.76465
G1 X36.115 Y8.8 E249.76804
G1 X-36.112 Y8.799 E250.36861
G1 X-36.171 Y8.399 E250.37197
G1 X36.17 Y8.4 E250.97349
G1 X36.214 Y8 E250.97683
G1 X-36.221 Y7.999 E251.57913
G1 X-36.25 Y7.599 E251.58247
G1 X36.258 Y7.6 E252.18537
G1 X36.262 Y7.566 E252.18566
G1 X36.275 Y7.2 E252.1887
G1 X-36.279 Y7.199 E252.79199
G1 X-36.289 Y7.06 E252.79315
G1 X-36.295 Y6.799 E252.79532
G1 X36.289 Y6.8 E253.39886
G1 X36.3 Y6.51 E253.40127
G1 X36.3 Y6.4 E253.40219
G1 X-36.3 Y6.399 E254.00586
G1 X-36.3 Y5.999 E254.00918
G1 X36.3 Y6 E254.61286
G1 X36.3 Y5.6 E254.61618
G1 X-36.3 Y5.599 E255.21985
G1 X-36.3 Y5.199 E255.22318
G1 X36.3 Y5.2 E255.82685
G1 X36.3 Y4.8 E255.83018
G1 X-36.3 Y4.799 E256.43385
G1 X-36.3 Y4.399 E256.43717
G1 X36.3 Y4.4 E257.04085
G1 X36.3 Y4 E257.04417
G1 X-36.3 Y3.999 E257.64784
G1 X-36.3 Y3.599 E257.65117
G1 X36.3 Y3.6 E258.25484
G1 X36.3 Y3.2 E258.25817
G1 X-36.3 Y3.199 E258.86184
G1 X-36.3 Y2.799 E258.86516
G1 X36.3 Y2.8 E259.46884
G1 X36.3 Y2.4 E259.47216
G1 X-36.3 Y2.399 E260.07583
G1 X-36.3 Y1.999 E260.07916
G1 X36.3 Y2 E260.68283
G1 X36.3 Y1.6 E260.68616
G1 X-36.3 Y1.599 E261.28983
G1 X-36.3 Y1.199 E261.29315
G1 X36.3 Y1.2 E261.89683
G1 X36.3 Y0.8 E261.90015
G1 X-36.3 Y0.799 E262.50382
G1 X-36.3 Y0.399 E262.50715
G1 X36.3 Y0.4 E263.11082
G1 X36.3 Y0.00 E263.11415
G1 X-36.3 Y0.00 E263.71782
G1 X-36.3 Y-.4 E263.72114
G1 X36.3 Y-.399 E264.32482
G1 X36.3 Y-.799 E264.32814
G1 X-36.3 Y-.8 E264.93181
G1 X-36.3 Y-1.2 E264.93514
G1 X36.3 Y-1.199 E265.53881
G1 X36.3 Y-1.599 E265.54214
G1 X-36.3 Y-1.6 E266.14581
G1 X-36.3 Y-2 E266.14913
G1 X36.3 Y-1.999 E266.75281
G1 X36.3 Y-2.399 E266.75613
G1 X-36.3 Y-2.4 E267.3598
G1 X-36.3 Y-2.8 E267.36313
G1 X36.3 Y-2.799 E267.9668
G1 X36.3 Y-3.199 E267.97013
G1 X-36.3 Y-3.2 E268.5738
G1 X-36.3 Y-3.6 E268.57712
G1 X36.3 Y-3.599 E269.1808
G1 X36.3 Y-3.999 E269.18412
G1 X-36.3 Y-4 E269.78779
G1 X-36.3 Y-4.4 E269.79112
G1 X36.3 Y-4.399 E270.39479
G1 X36.3 Y-4.799 E270.39812
G1 X-36.3 Y-4.8 E271.00179
G1 X-36.3 Y-5.2 E271.00511
G1 X36.3 Y-5.199 E271.60879
G1 X36.3 Y-5.599 E271.61211
G1 X-36.3 Y-5.6 E272.21578
G1 X-36.3 Y-6 E272.21911
