;FLAVOR:Marlin
;TIME:4286
;Filament used: 0.594932m
;Layer height: 0.05
;Generated with Cura_SteamEngine 1.2.3
M140 S60
M104 S200
M109 S200
G28
G1 Z50.00 F400
G92 E0
G1 F200 E3
G92 E0
M132 X Y Z A
M907 X100 Y100 Z50 A100
;LAYER_COUNT:137
;LAYER:-12
G1 F3600 E-3
M107
M204 S2000
G0 F3600 X-16.1 Y-3.503 Z0.24
G1 F3600 E0
G1 F450 X-16.062 Y-4.558 E0.08427
G1 X-15.941 Y-5.647 E0.17173
G1 X-15.753 Y-6.667 E0.25453
G1 X-15.485 Y-7.691 E0.33902
G1 X-15.129 Y-8.736 E0.42714
G1 X-14.724 Y-9.689 E0.5098
G1 X-14.232 Y-10.647 E0.59577
G1 X-13.678 Y-11.554 E0.6806
G1 X-13.056 Y-12.424 E0.76598
G1 X-12.378 Y-13.239 E0.8506
G1 X-11.647 Y-13.997 E0.93466
G1 X-10.838 Y-14.722 E1.02138
G1 X-9.989 Y-15.378 E1.10702
G1 X-9.116 Y-15.956 E1.1906
G1 X-8.178 Y-16.483 E1.27648
G1 X-7.222 Y-16.932 E1.36079
G1 X-6.215 Y-17.317 E1.44685
G1 X-5.197 Y-17.624 E1.53172
G1 X-4.165 Y-17.855 E1.61614
G1 X-3.099 Y-18.012 E1.70215
G1 X-2.047 Y-18.089 E1.78635
G1 X-1.482 Y-18.1 E1.83146
G1 X6.995 Y-18.1 E2.50813
G1 X8.057 Y-18.062 E2.59296
G1 X9.145 Y-17.941 E2.68034
G1 X10.167 Y-17.753 E2.76329
G1 X11.191 Y-17.485 E2.84778
G1 X12.23 Y-17.131 E2.9354
G1 X13.189 Y-16.724 E3.01856
G1 X14.147 Y-16.232 E3.10453
G1 X15.054 Y-15.678 E3.18937
G1 X15.924 Y-15.056 E3.27474
G1 X16.739 Y-14.378 E3.35937
G1 X17.497 Y-13.647 E3.44342
G1 X18.222 Y-12.838 E3.53014
G1 X18.878 Y-11.989 E3.61578
G1 X19.456 Y-11.116 E3.69936
G1 X19.983 Y-10.178 E3.78524
G1 X20.432 Y-9.222 E3.86955
G1 X20.817 Y-8.215 E3.95561
G1 X21.124 Y-7.197 E4.04049
G1 X21.354 Y-6.168 E4.12465
G1 X21.512 Y-5.099 E4.21091
G1 X21.589 Y-4.047 E4.29511
G1 X21.6 Y-3.509 E4.33807
G1 X21.6 Y5.003 E5.01753
G1 X21.562 Y6.058 E5.1018
G1 X21.441 Y7.145 E5.18911
G1 X21.253 Y8.167 E5.27205
G1 X20.985 Y9.191 E5.35655
G1 X20.631 Y10.23 E5.44417
G1 X20.224 Y11.189 E5.52733
G1 X19.743 Y12.126 E5.6114
G1 X19.171 Y13.064 E5.6991
G1 X18.556 Y13.924 E5.7835
G1 X17.878 Y14.739 E5.86812
G1 X17.147 Y15.497 E5.95218
G1 X16.338 Y16.222 E6.0389
G1 X15.494 Y16.874 E6.12403
G1 X14.616 Y17.456 E6.20812
G1 X13.678 Y17.983 E6.294
G1 X12.722 Y18.432 E6.37831
G1 X11.715 Y18.817 E6.46437
G1 X10.697 Y19.124 E6.54924
G1 X9.665 Y19.355 E6.63366
G1 X8.599 Y19.512 E6.71967
G1 X7.547 Y19.589 E6.80387
G1 X6.982 Y19.6 E6.84898
G1 X-1.495 Y19.6 E7.52565
G1 X-2.557 Y19.562 E7.61048
G1 X-3.645 Y19.441 E7.69786
G1 X-4.667 Y19.253 E7.78081
G1 X-5.691 Y18.985 E7.8653
G1 X-6.73 Y18.631 E7.95292
G1 X-7.689 Y18.224 E8.03608
G1 X-8.647 Y17.732 E8.12205
G1 X-9.554 Y17.178 E8.20689
G1 X-10.424 Y16.556 E8.29226
G1 X-11.239 Y15.878 E8.37689
G1 X-11.997 Y15.147 E8.46094
G1 X-12.722 Y14.338 E8.54766
G1 X-13.378 Y13.489 E8.6333
G1 X-13.956 Y12.616 E8.71688
G1 X-14.483 Y11.678 E8.80276
G1 X-14.932 Y10.722 E8.88707
G1 X-15.317 Y9.715 E8.97313
G1 X-15.624 Y8.697 E9.05801
G1 X-15.855 Y7.665 E9.14242
G1 X-16.012 Y6.599 E9.22844
G1 X-16.089 Y5.547 E9.31264
G1 X-16.1 Y5.009 E9.35559
G1 X-16.1 Y-3.503 E10.03505
G0 F3600 X-16 Y-5.116
G1 F450 X-16 Y6.68 E10.97666
G0 F3600 X-14.4 Y11.825
G1 F450 X-14.4 Y-10.32 E12.74437
G0 F3600 X-12.8 Y-12.732
G1 F450 X-12.8 Y14.237 E14.89715
G0 F3600 X-11.2 Y15.91
G1 F450 X-11.2 Y-14.398 E17.31647
G0 F3600 X-9.6 Y-15.636
G1 F450 X-9.6 Y17.145 E19.93319
G0 F3600 X-8 Y18.064
G1 F450 X-8 Y-16.567 E22.69759
G0 F3600 X-6.4 Y-17.247
G1 F450 X-6.4 Y18.743 E25.57046
G0 F3600 X-4.8 Y19.218
G1 F450 X-4.8 Y-17.713 E28.51846
G0 F3600 X-3.2 Y-17.998
G1 F450 X-3.2 Y19.49 E31.51091
G0 F3600 X-1.6 Y19.596
G1 F450 X-1.6 Y-18.098 E34.51981
G0 F3600 X0.00 Y-18.1
G1 F450 X0.00 Y19.6 E37.52919
G0 F3600 X1.6 Y19.6
G1 F450 X1.6 Y-18.1 E40.53856
G0 F3600 X3.2 Y-18.1
G1 F450 X3.2 Y19.6 E43.54794
G0 F3600 X4.8 Y19.6
G1 F450 X4.8 Y-18.1 E46.55732
G0 F3600 X6.4 Y-18.1
G1 F450 X6.4 Y19.6 E49.56669
G0 F3600 X8 Y19.556
G1 F450 X8 Y-18.064 E52.56968
G0 F3600 X9.6 Y-17.857
G1 F450 X9.6 Y19.365 E55.54091
G0 F3600 X11.2 Y18.973
G1 F450 X11.2 Y-17.481 E58.45082
G0 F3600 X12.8 Y-16.889
G1 F450 X12.8 Y18.396 E61.26742
G0 F3600 X14.4 Y17.578
G1 F450 X14.4 Y-16.077 E63.95391
G0 F3600 X16 Y-14.992
G1 F450 X16 Y16.484 E66.46646
G0 F3600 X17.6 Y15.028
G1 F450 X17.6 Y-13.532 E68.74624
G0 F3600 X19.2 Y-11.502
G1 F450 X19.2 Y13.017 E70.70346
G0 F3600 X20.8 Y9.734
G1 F450 X20.8 Y-8.259 E72.13974
G0 F3600 X-16.099 Y-.543
;TIME_ELAPSED:130.710369
;LAYER:-11
M140 S60
G1 F3600 E69.13974
G0 F3600 X-16.099 Y-.543 Z0.315
;TYPE:SUPPORT
G1 F3600 E72.13974
G1 F450 X-16.099 Y0.871 E72.17501
G1 X2.629 Y19.599 E72.83569
G1 X1.214 Y19.599 E72.87099
G1 X-16.099 Y2.285 E73.48177
G1 X-16.099 Y3.699 E73.51704
G1 X-.199 Y19.599 E74.07795
G1 X-1.494 Y19.599 E74.11026
G1 X-1.618 Y19.594 E74.11335
G1 X-16.097 Y5.115 E74.62414
G1 X-16.088 Y5.546 E74.63489
G1 X-16.011 Y6.599 E74.66123
G1 X-16.008 Y6.619 E74.66174
G1 X-3.129 Y19.497 E75.11606
G1 X-3.645 Y19.44 E75.12901
G1 X-4.666 Y19.251 E75.15491
G1 X-4.833 Y19.207 E75.15922
G1 X-15.704 Y8.337 E75.5427
G1 X-15.623 Y8.696 E75.55189
G1 X-15.316 Y9.714 E75.57841
G1 X-15.054 Y10.401 E75.59675
G1 X-6.896 Y18.559 E75.88455
G1 X-7.689 Y18.223 E75.90603
G1 X-8.646 Y17.731 E75.93287
G1 X-9.554 Y17.177 E75.95941
G1 X-10.041 Y16.828 E75.97435
G1 X-13.363 Y13.506 E76.09154
G0 F3600 X-16.099 Y-.543
G1 F450 X4.043 Y19.599 E76.80211
G1 X5.457 Y19.599 E76.83738
G1 X-16.099 Y-1.957 E77.59783
G1 X-16.099 Y-3.371 E77.6331
G1 X6.871 Y19.599 E78.44343
G1 X6.981 Y19.599 E78.44617
G1 X7.547 Y19.588 E78.46029
G1 X8.224 Y19.538 E78.47723
G1 X-16.042 Y-4.729 E79.33329
G1 X-15.94 Y-5.647 E79.35633
G1 X-15.879 Y-5.98 E79.36478
G1 X9.481 Y19.381 E80.25944
G1 X9.665 Y19.354 E80.26408
G1 X10.648 Y19.133 E80.28921
G1 X-15.627 Y-7.142 E81.21613
G1 X-15.484 Y-7.69 E81.23026
G1 X-15.301 Y-8.23 E81.24448
G1 X11.736 Y18.807 E82.19829
G1 X12.722 Y18.431 E82.22461
G1 X12.757 Y18.414 E82.22558
G1 X-14.909 Y-9.252 E83.20157
G1 X-14.723 Y-9.688 E83.2134
G1 X-14.455 Y-10.212 E83.22808
G1 X13.717 Y17.959 E84.2219
G1 X14.615 Y17.455 E84.24759
G1 X14.622 Y17.45 E84.24781
G1 X-13.944 Y-11.116 E85.25555
G1 X-13.676 Y-11.554 E85.26836
G1 X-13.381 Y-11.967 E85.28102
G1 X15.472 Y16.886 E86.29889
G1 X15.494 Y16.872 E86.29954
G1 X16.271 Y16.271 E86.32404
G1 X-12.768 Y-12.768 E87.34847
G1 X-12.377 Y-13.237 E87.3637
G1 X-12.106 Y-13.52 E87.37348
G1 X17.021 Y15.607 E88.40101
G1 X17.145 Y15.496 E88.40516
G1 X17.725 Y14.896 E88.42598
G1 X-11.394 Y-14.222 E89.45321
G1 X-10.837 Y-14.721 E89.47187
G1 X-10.634 Y-14.877 E89.47825
G1 X18.379 Y14.136 E90.50176
G1 X18.555 Y13.923 E90.50866
G1 X18.982 Y13.326 E90.52697
G1 X-9.827 Y-15.484 E91.5433
G1 X-9.116 Y-15.955 E91.56457
G1 X-8.966 Y-16.037 E91.56884
G1 X19.535 Y12.464 E92.57429
G1 X19.742 Y12.125 E92.5842
G1 X20.037 Y11.552 E92.60027
G1 X-8.053 Y-16.539 E93.59124
G1 X-7.221 Y-16.931 E93.61418
G1 X-7.084 Y-16.983 E93.61784
G1 X20.481 Y10.581 E94.59025
G1 X20.63 Y10.23 E94.59976
G1 X20.862 Y9.548 E94.61773
G1 X-6.051 Y-17.365 E95.56716
G1 X-5.196 Y-17.623 E95.58944
G1 X-4.949 Y-17.677 E95.59575
G1 X21.178 Y8.45 E96.51745
G1 X21.252 Y8.167 E96.52474
G1 X21.416 Y7.274 E96.54739
G1 X-3.77 Y-17.912 E97.4359
G1 X-3.098 Y-18.011 E97.45284
G1 X-2.498 Y-18.055 E97.46785
G1 X21.563 Y6.006 E98.31666
G1 X21.599 Y5.003 E98.3417
G1 X21.599 Y4.628 E98.35105
G1 X-1.128 Y-18.099 E99.15281
G1 X0.285 Y-18.099 E99.18806
G1 X21.599 Y3.214 E99.93995
G1 X21.599 Y1.8 E99.97522
G1 X1.699 Y-18.099 E100.67723
G1 X3.114 Y-18.099 E100.71253
G1 X21.599 Y0.386 E101.36464
G1 X21.599 Y-1.028 E101.39991
G1 X4.528 Y-18.099 E102.00213
G1 X5.942 Y-18.099 E102.03741
G1 X21.599 Y-2.442 E102.58975
G1 X21.599 Y-3.508 E102.61634
G1 X21.592 Y-3.862 E102.62517
G1 X7.37 Y-18.084 E103.12689
G1 X8.056 Y-18.06 E103.14402
G1 X8.903 Y-17.966 E103.16527
G1 X21.466 Y-5.403 E103.60847
G1 X21.353 Y-6.167 E103.62773
G1 X21.133 Y-7.15 E103.65286
G1 X10.661 Y-17.622 E104.02229
G1 X11.19 Y-17.483 E104.03593
G1 X12.23 Y-17.13 E104.06333
G1 X12.817 Y-16.88 E104.07924
G1 X20.391 Y-9.306 E104.34644
G1 X19.982 Y-10.178 E104.37046
G1 X19.455 Y-11.115 E104.39728
G1 X18.877 Y-11.988 E104.4234
G1 X18.221 Y-12.837 E104.45016
G1 X17.762 Y-13.35 E104.46733
G1 X16.713 Y-14.398 E104.50432
G0 F3600 X-16.3 Y0.00
;TIME_ELAPSED:304.787223
;LAYER:-10
G1 F3600 E101.50432
G0 F3600 X-16.3 Y0.00 Z0.365
G1 F3600 E104.50432
G1 F600 X-16.3 Y-.4 E104.50765
G1 X21.8 Y-.399 E104.82445
G1 X21.8 Y-.799 E104.82778
G1 X-16.3 Y-.8 E105.14458
G1 X-16.3 Y-1.2 E105.14791
G1 X21.8 Y-1.199 E105.46471
G1 X21.8 Y-1.599 E105.46803
G1 X-16.3 Y-1.6 E105.78484
G1 X-16.3 Y-2 E105.78816
G1 X21.8 Y-1.999 E106.10497
G1 X21.8 Y-2.399 E106.10829
G1 X-16.3 Y-2.4 E106.4251
G1 X-16.3 Y-2.8 E106.42842
G1 X21.8 Y-2.799 E106.74522
G1 X21.8 Y-3.199 E106.74855
G1 X-16.3 Y-3.2 E107.06535
G1 X-16.3 Y-3.51 E107.06793
G1 X-16.296 Y-3.6 E107.06868
G1 X21.799 Y-3.599 E107.38544
G1 X21.791 Y-3.999 E107.38877
G1 X-16.282 Y-4 E107.70535
G1 X-16.267 Y-4.4 E107.70867
G1 X21.765 Y-4.399 E108.02491
G1 X21.736 Y-4.799 E108.02825
G1 X-16.236 Y-4.8 E108.34398
G1 X-16.192 Y-5.2 E108.34733
G1 X21.7 Y-5.199 E108.6624
G1 X21.641 Y-5.599 E108.66577
G1 X-16.147 Y-5.6 E108.97997
G1 X-16.142 Y-5.654 E108.98043
G1 X-16.078 Y-6 E108.98335
G1 X21.582 Y-5.999 E109.2965
G1 X21.552 Y-6.197 E109.29816
G1 X21.507 Y-6.399 E109.29988
G1 X-16.004 Y-6.4 E109.61179
G1 X-15.945 Y-6.723 E109.61452
G1 X-15.924 Y-6.8 E109.61518
G1 X21.418 Y-6.799 E109.92568
G1 X21.328 Y-7.199 E109.92909
G1 X-15.82 Y-7.2 E110.23798
G1 X-15.715 Y-7.6 E110.24142
G1 X21.212 Y-7.599 E110.54846
G1 X21.092 Y-7.999 E110.55194
G1 X-15.591 Y-8 E110.85696
G1 X-15.455 Y-8.4 E110.86047
G1 X20.961 Y-8.399 E111.16327
G1 X20.808 Y-8.799 E111.16683
G1 X-15.318 Y-8.8 E111.46722
G1 X-15.148 Y-9.2 E111.47083
G1 X20.656 Y-9.199 E111.76855
G1 X20.619 Y-9.294 E111.76939
G1 X20.476 Y-9.599 E111.77219
G1 X-14.978 Y-9.6 E112.067
G1 X-14.905 Y-9.774 E112.06856
G1 X-14.789 Y-10 E112.07068
G1 X20.288 Y-9.999 E112.36234
G1 X20.156 Y-10.279 E112.36492
G1 X20.089 Y-10.399 E112.36606
G1 X-14.584 Y-10.4 E112.65437
G1 X-14.417 Y-10.726 E112.65741
G1 X-14.371 Y-10.8 E112.65814
G1 X19.864 Y-10.799 E112.9428
G1 X19.639 Y-11.199 E112.94662
G1 X-14.127 Y-11.2 E113.22738
G1 X-13.882 Y-11.6 E113.23128
G1 X19.375 Y-11.599 E113.50782
G1 X19.11 Y-11.999 E113.51181
G1 X-13.604 Y-12 E113.78383
G1 X-13.319 Y-12.4 E113.78791
G1 X18.813 Y-12.399 E114.05509
G1 X18.505 Y-12.799 E114.05929
G1 X-13.002 Y-12.8 E114.32127
G1 X-12.669 Y-13.2 E114.3256
G1 X18.167 Y-13.199 E114.582
G1 X17.809 Y-13.599 E114.58646
G1 X-12.306 Y-13.6 E114.83687
G1 X-11.921 Y-14 E114.84148
G1 X17.419 Y-13.999 E115.08545
G1 X17.003 Y-14.399 E115.09025
G1 X-11.497 Y-14.4 E115.32722
G1 X-11.05 Y-14.8 E115.33221
G1 X16.544 Y-14.799 E115.56166
G1 X16.063 Y-15.199 E115.56686
G1 X-10.545 Y-15.2 E115.78811
G1 X-10.114 Y-15.533 E115.79263
G1 X-10.012 Y-15.6 E115.79365
G1 X15.506 Y-15.599 E116.00583
G1 X15.169 Y-15.839 E116.00927
G1 X14.908 Y-15.999 E116.01182
G1 X-9.409 Y-16 E116.21401
G1 X-9.206 Y-16.135 E116.21604
G1 X-8.734 Y-16.4 E116.22054
G1 X14.253 Y-16.4 E116.41168
G1 X14.228 Y-16.415 E116.41192
G1 X13.478 Y-16.8 E116.41893
G1 X-7.973 Y-16.8 E116.5973
G1 X-7.294 Y-17.119 E116.60354
G1 X-7.081 Y-17.2 E116.60543
G1 X12.579 Y-17.2 E116.76891
G1 X12.289 Y-17.323 E116.77152
G1 X11.475 Y-17.6 E116.77867
G1 X-5.97 Y-17.6 E116.92373
G1 X-5.258 Y-17.815 E116.92991
G1 X-4.429 Y-18 E116.93698
G1 X9.925 Y-18 E117.05633
G0 F3600 X21.8 Y0.00
G1 F600 X-16.3 Y0.00 E117.37313
G0 F3600 X-16.3 Y0.399
G1 F600 X21.8 Y0.4 E117.68994
G1 X21.8 Y0.00 E117.69326
G0 F3600 X21.8 Y0.8
G1 F600 X21.8 Y1.2 E117.69659
G1 X-16.3 Y1.199 E118.01339
G1 X-16.3 Y1.599 E118.01672
G1 X21.8 Y1.6 E118.33352
G1 X21.8 Y2 E118.33685
G1 X-16.3 Y1.999 E118.65365
G1 X-16.3 Y2.399 E118.65697
G1 X21.8 Y2.4 E118.97378
G1 X21.8 Y2.8 E118.9771
G1 X-16.3 Y2.799 E119.29391
G1 X-16.3 Y3.199 E119.29723
G1 X21.8 Y3.2 E119.61404
G1 X21.8 Y3.6 E119.61736
G1 X-16.3 Y3.599 E119.93416
G1 X-16.3 Y3.999 E119.93749
G1 X21.8 Y4 E120.25429
G1 X21.8 Y4.4 E120.25762
G1 X-16.3 Y4.399 E120.57442
G1 X-16.3 Y4.799 E120.57775
G1 X21.8 Y4.8 E120.89455
G1 X21.8 Y5.01 E120.8963
G1 X21.793 Y5.2 E120.89788
G1 X-16.297 Y5.199 E121.2146
G1 X-16.289 Y5.56 E121.2176
G1 X-16.287 Y5.599 E121.21792
G1 X21.778 Y5.6 E121.53444
G1 X21.764 Y6 E121.53776
G1 X-16.258 Y5.999 E121.85392
G1 X-16.228 Y6.399 E121.85725
G1 X21.725 Y6.4 E122.17283
G1 X21.681 Y6.8 E122.17618
G1 X-16.186 Y6.799 E122.49105
G1 X-16.126 Y7.199 E122.49441
G1 X21.633 Y7.2 E122.80838
G1 X21.559 Y7.6 E122.81176
G1 X-16.067 Y7.599 E123.12462
G1 X-16.053 Y7.692 E123.1254
G1 X-15.985 Y7.999 E123.12802
G1 X21.486 Y8 E123.43959
G1 X21.445 Y8.223 E123.44147
G1 X21.398 Y8.4 E123.443
G1 X-15.896 Y8.399 E123.7531
G1 X-15.815 Y8.758 E123.75616
G1 X-15.803 Y8.799 E123.75651
G1 X21.293 Y8.8 E124.06497
G1 X21.189 Y9.2 E124.0684
G1 X-15.682 Y9.199 E124.37499
G1 X-15.562 Y9.599 E124.37846
G1 X21.057 Y9.6 E124.68295
G1 X20.921 Y10 E124.68646
G1 X-15.423 Y9.999 E124.98866
G1 X-15.27 Y10.399 E124.99222
G1 X20.775 Y10.4 E125.29194
G1 X20.606 Y10.8 E125.29555
G1 X-15.117 Y10.799 E125.59259
G1 X-14.929 Y11.199 E125.59626
G1 X20.436 Y11.2 E125.89032
G1 X20.405 Y11.274 E125.89099
G1 X20.237 Y11.6 E125.89404
G1 X-14.742 Y11.6 E126.18489
G1 X-14.658 Y11.777 E126.18652
G1 X-14.533 Y12 E126.18865
G1 X20.032 Y12 E126.47606
G1 X19.921 Y12.217 E126.47808
G1 X19.809 Y12.4 E126.47987
G1 X-14.308 Y12.4 E126.76355
G1 X-14.135 Y12.707 E126.76648
G1 X-14.074 Y12.8 E126.76741
G1 X19.565 Y12.8 E127.04712
G1 X19.34 Y13.17 E127.05072
G1 X19.318 Y13.2 E127.05103
G1 X-13.809 Y13.2 E127.32648
G1 X-13.543 Y13.6 E127.33047
G1 X19.032 Y13.6 E127.60133
G1 X18.747 Y14 E127.60542
G1 X-13.236 Y14 E127.87136
G1 X-12.927 Y14.4 E127.87556
G1 X18.418 Y14.4 E128.1362
G1 X18.085 Y14.8 E128.14052
G1 X-12.577 Y14.8 E128.39548
G1 X-12.219 Y15.2 E128.39994
G1 X17.709 Y15.2 E128.6488
G1 X17.324 Y15.6 E128.65341
G1 X-11.814 Y15.6 E128.8957
G1 X-11.399 Y16 E128.90049
G1 X16.884 Y16 E129.13566
G1 X16.466 Y16.375 E129.14033
G1 X16.433 Y16.4 E129.14068
G1 X-10.923 Y16.4 E129.36814
G1 X-10.542 Y16.717 E129.37226
G1 X-10.426 Y16.8 E129.37345
G1 X15.915 Y16.8 E129.59248
G1 X15.614 Y17.033 E129.59564
G1 X15.362 Y17.2 E129.59815
G1 X-9.866 Y17.2 E129.80793
G1 X-9.669 Y17.34 E129.80994
G1 X-9.244 Y17.6 E129.81408
G1 X14.758 Y17.6 E130.01366
G1 X14.706 Y17.635 E130.01418
G1 X14.056 Y18 E130.02038
G1 X-8.563 Y18 E130.20845
G1 X-7.783 Y18.4 E130.21574
G1 X13.26 Y18.4 E130.39071
G1 X12.794 Y18.619 E130.395
G1 X12.32 Y18.8 E130.39922
G1 X-6.844 Y18.8 E130.55856
G1 X-6.789 Y18.823 E130.55906
G1 X-5.754 Y19.175 E130.56815
G1 X-5.659 Y19.2 E130.56897
G1 X11.139 Y19.2 E130.70864
G1 X10.758 Y19.315 E130.71195
G1 X9.692 Y19.553 E130.72103
G1 X9.374 Y19.6 E130.72371
G1 X-3.883 Y19.6 E130.83394
G0 F3600 X-16.3 Y0.799
G1 F600 X21.8 Y0.8 E131.15074
G0 F3600 X-16.3 Y0.799
G1 F600 X-16.3 Y0.399 E131.15407
G0 F3600 X-16 Y-6.425
;TIME_ELAPSED:627.118631
;LAYER:-9
G1 F3600 E128.15407
G0 F3600 X-16 Y-6.425 Z0.415
G1 F3600 E131.15407
G1 F600 X-15.945 Y-6.723 E131.15659
G1 X-15.673 Y-7.759 E131.16549
G1 X-15.599 Y-7.977 E131.16741
G1 X-15.6 Y9.466 E131.31245
G1 X-15.507 Y9.775 E131.31513
G1 X-15.2 Y10.579 E131.32229
G1 X-15.199 Y-9.079 E131.48574
G1 X-14.904 Y-9.774 E131.49202
G1 X-14.799 Y-9.979 E131.49394
G1 X-14.8 Y11.471 E131.67229
G1 X-14.657 Y11.776 E131.6751
G1 X-14.4 Y12.232 E131.67945
G1 X-14.399 Y-10.753 E131.87057
G1 X-13.999 Y-11.408 E131.87695
G1 X-14 Y12.908 E132.07914
G1 X-13.6 Y13.511 E132.08516
G1 X-13.599 Y-12.006 E132.29733
G1 X-13.219 Y-12.538 E132.30277
G1 X-13.199 Y-12.563 E132.30303
G1 X-13.2 Y14.044 E132.52427
