;FLAVOR:Marlin
;TIME:13118
;Filament used: 4.89713m
;Layer height: 0.2
;MINX:94.7
;MINY:99.2
;MINZ:0.2
;MAXX:140.3
;MAXY:136.2
;MAXZ:58
;Generated with Cura_SteamEngine 5.3.0
M140 S50
M105
M190 S50
M104 S200
M105
M109 S200
M82 ;absolute extrusion mode
; Ender 3 Custom Start G-code
G92 E0 ; Reset Extruder
G28 ; Home all axes
G1 Z2.0 F3000 ; Move Z Axis up little to prevent scratching of Heat Bed
G1 X0.1 Y20 Z0.3 F5000.0 ; Move to start position
G1 X0.1 Y200.0 Z0.3 F1500.0 E15 ; Draw the first line
G1 X0.4 Y200.0 Z0.3 F5000.0 ; Move to side a little
G1 X0.4 Y20 Z0.3 F1500.0 E30 ; Draw the second line
G92 E0 ; Reset Extruder
G1 Z2.0 F3000 ; Move Z Axis up little to prevent scratching of Heat Bed
G1 X5 Y20 Z0.3 F5000.0 ; Move over to prevent blob squish
G92 E0
G92 E0
G1 F2700 E-5
;LAYER_COUNT:290
;LAYER:0
M107
G0 F6000 X97.219 Y103.213 Z0.2
;TYPE:SKIRT
G1 F2700 E0
G1 F1200 X98.8 Y101.733 E0.07203
G1 X100.098 Y100.971 E0.12209
G1 X101.385 Y100.414 E0.16873
G1 X101.726 Y100.373 E0.18016
G1 X102.124 Y100.152 E0.1953
G1 X103.236 Y99.634 E0.2361
G1 X104.969 Y99.2 E0.29552
G1 X108.833 Y99.207 E0.42404
G1 X111.094 Y99.747 E0.50135
G1 X112.433 Y100.466 E0.5519
G1 X113.219 Y100.652 E0.57877
G1 X115.295 Y101.722 E0.65645
G1 X116.714 Y103.257 E0.72597
G1 X117.042 Y103.804 E0.74719
G1 X117.912 Y103.802 E0.77612
G1 X118.254 Y103.155 E0.80046
G1 X119.829 Y101.726 E0.8712
G1 X121.294 Y100.854 E0.9279
G1 X122.567 Y100.432 E0.97251
G1 X122.71 Y100.399 E0.97739
G1 X123.129 Y100.161 E0.99342
G1 X124.34 Y99.641 E1.03725
G1 X125.858 Y99.2 E1.08983
G1 X129.824 Y99.207 E1.22174
G1 X132.146 Y99.758 E1.30111
G1 X133.425 Y100.461 E1.34965
G1 X134.233 Y100.655 E1.37729
G1 X136.272 Y101.715 E1.45373
G1 X137.75 Y103.294 E1.52566
G1 X138.862 Y105.166 E1.59808
G1 X139.3 Y107.353 E1.67226
G1 X139.3 Y110.225 E1.76779
G1 X139.865 Y111.178 E1.80464
G1 X140.3 Y113.35 E1.87831
G1 X140.3 Y126.853 E2.32742
G1 X139.834 Y128.749 E2.39236
G1 X138.781 Y130.776 E2.46833
G1 X137.206 Y132.25 E2.54008
G1 X135.334 Y133.362 E2.6125
G1 X133.147 Y133.8 E2.68669
G1 X126.927 Y133.8 E2.89356
G1 X126.317 Y134.267 E2.91911
G1 X125.143 Y134.718 E2.96094
G1 X124.144 Y135.308 E2.99953
G1 X121.399 Y136.19 E3.09543
G1 X114.774 Y136.2 E3.31578
G1 X111.822 Y135.338 E3.41806
G1 X110.604 Y134.578 E3.46581
G1 X109.604 Y134.11 E3.50253
G1 X109.186 Y133.8 E3.51984
G1 X101.647 Y133.8 E3.77059
G1 X99.751 Y133.334 E3.83553
G1 X97.724 Y132.281 E3.9115
G1 X96.25 Y130.706 E3.98325
G1 X95.138 Y128.834 E4.05567
G1 X94.7 Y126.647 E4.12985
G1 X94.7 Y113.145 E4.57893
G1 X95.166 Y111.241 E4.64413
G1 X95.7 Y110.216 E4.68257
G1 X95.7 Y107.136 E4.78501
G1 X96.166 Y105.24 E4.84995
G1 X97.219 Y103.213 E4.92592
G0 F6000 X97.542 Y103.458
G1 F1200 X99.039 Y102.057 E4.99411
G1 X100.301 Y101.316 E5.04279
G1 X101.49 Y100.804 E5.08585
G1 X101.852 Y100.761 E5.09797
G1 X102.293 Y100.515 E5.11477
G1 X103.373 Y100.012 E5.15439
G1 X105.018 Y99.6 E5.2108
G1 X108.786 Y99.607 E5.33612
G1 X110.952 Y100.124 E5.41019
G1 X112.291 Y100.843 E5.46073
G1 X113.077 Y101.029 E5.4876
G1 X115.048 Y102.045 E5.56135
G1 X116.393 Y103.5 E5.62725
G1 X116.815 Y104.204 E5.65455
G1 X118.154 Y104.202 E5.69909
G1 X118.576 Y103.403 E5.72914
G1 X120.066 Y102.051 E5.79606
G1 X121.462 Y101.22 E5.8501
G1 X122.658 Y100.822 E5.89202
G1 X122.856 Y100.776 E5.89878
G1 X123.287 Y100.529 E5.9153
G1 X124.498 Y100.009 E5.95914
G1 X125.914 Y99.6 E6.00816
G1 X129.778 Y99.607 E6.13668
G1 X131.998 Y100.134 E6.21257
G1 X133.277 Y100.837 E6.26111
G1 X134.091 Y101.032 E6.28895
G1 X136.028 Y102.039 E6.36156
G1 X137.428 Y103.535 E6.42971
G1 X138.484 Y105.312 E6.49846
G1 X138.9 Y107.391 E6.56898
G1 X138.9 Y110.335 E6.66689
G1 X139.487 Y111.324 E6.70515
G1 X139.9 Y113.388 E6.77516
G1 X139.9 Y126.807 E7.22147
G1 X139.458 Y128.606 E7.28309
G1 X138.458 Y130.531 E7.35524
G1 X136.965 Y131.928 E7.42324
G1 X135.188 Y132.984 E7.492
G1 X133.109 Y133.4 E7.56251
G1 X126.792 Y133.4 E7.77262
G1 X126.12 Y133.915 E7.80078
G1 X124.969 Y134.357 E7.84179
G1 X123.982 Y134.94 E7.87991
G1 X121.336 Y135.79 E7.97235
G1 X114.831 Y135.8 E8.18871
G1 X111.986 Y134.969 E8.28728
G1 X110.797 Y134.227 E8.3339
G1 X109.813 Y133.767 E8.37003
G1 X109.319 Y133.4 E8.3905
G1 X101.693 Y133.4 E8.64414
G1 X99.894 Y132.958 E8.70575
G1 X97.969 Y131.958 E8.7779
G1 X96.572 Y130.465 E8.84591
G1 X95.516 Y128.688 E8.91466
G1 X95.1 Y126.609 E8.98518
G1 X95.1 Y113.195 E9.43133
G1 X95.544 Y111.383 E9.49338
G1 X96.1 Y110.315 E9.53343
G1 X96.1 Y107.182 E9.63763
G1 X96.542 Y105.383 E9.69924
G1 X97.542 Y103.458 E9.77139
G0 F6000 X97.865 Y103.703
G1 F1200 X99.278 Y102.381 E9.83575
G1 X100.504 Y101.661 E9.88304
G1 X101.596 Y101.194 E9.92254
G1 X101.978 Y101.149 E9.93534
G1 X102.462 Y100.878 E9.95379
G1 X103.51 Y100.39 E9.99224
G1 X105.067 Y100 E10.04562
G1 X108.739 Y100.007 E10.16775
G1 X110.81 Y100.501 E10.23857
G1 X112.149 Y101.22 E10.28912
G1 X112.935 Y101.406 E10.31598
G1 X114.803 Y102.369 E10.38588
G1 X116.07 Y103.74 E10.44797
G1 X116.588 Y104.605 E10.48151
G1 X118.396 Y104.601 E10.54164
G1 X118.898 Y103.651 E10.57738
G1 X120.305 Y102.374 E10.64058
G1 X121.628 Y101.587 E10.69178
G1 X122.784 Y101.202 E10.7323
G1 X123.001 Y101.154 E10.73969
G1 X123.445 Y100.897 E10.75676
G1 X124.656 Y100.377 E10.80059
G1 X125.968 Y100 E10.84599
G1 X129.732 Y100.007 E10.97118
G1 X131.85 Y100.51 E11.04359
G1 X133.129 Y101.213 E11.09213
G1 X133.949 Y101.409 E11.12017
G1 X135.784 Y102.363 E11.18896
G1 X137.106 Y103.776 E11.25332
G1 X138.105 Y105.458 E11.31839
G1 X138.5 Y107.43 E11.38528
G1 X138.5 Y110.445 E11.48556
G1 X139.108 Y111.47 E11.5252
G1 X139.5 Y113.427 E11.59158
G1 X139.5 Y126.76 E12.03504
G1 X139.081 Y128.464 E12.0934
G1 X138.135 Y130.286 E12.16168
G1 X136.724 Y131.606 E12.22595
G1 X135.042 Y132.605 E12.29101
G1 X133.07 Y133 E12.3579
G1 X126.656 Y133 E12.57123
G1 X125.921 Y133.563 E12.60203
G1 X124.797 Y133.995 E12.64208
G1 X123.82 Y134.572 E12.67982
G1 X121.273 Y135.39 E12.76879
G1 X114.888 Y135.4 E12.98116
G1 X112.15 Y134.6 E13.07603
G1 X110.988 Y133.875 E13.12159
G1 X110.02 Y133.422 E13.15713
G1 X109.452 Y133 E13.18067
G1 X101.74 Y133 E13.43717
G1 X100.036 Y132.581 E13.49553
G1 X98.214 Y131.635 E13.56382
G1 X96.894 Y130.224 E13.62808
G1 X95.895 Y128.542 E13.69315
G1 X95.5 Y126.57 E13.76004
G1 X95.5 Y113.241 E14.20336
G1 X95.92 Y111.528 E14.26203
G1 X96.5 Y110.414 E14.3038
G1 X96.5 Y107.229 E14.40973
G1 X96.919 Y105.525 E14.4681
G1 X97.865 Y103.703 E14.53638
G0 F6000 X98.188 Y103.948
G1 F1200 X99.517 Y102.705 E14.5969
G1 X100.707 Y102.006 E14.6428
G1 X101.7 Y101.584 E14.67869
G1 X102.105 Y101.536 E14.69225
G1 X102.631 Y101.241 E14.71231
G1 X103.647 Y100.768 E14.74959
G1 X105.116 Y100.4 E14.79996
G1 X108.692 Y100.407 E14.91889
G1 X110.668 Y100.878 E14.98646
G1 X112.007 Y101.597 E15.03701
G1 X112.793 Y101.783 E15.06387
G1 X114.558 Y102.693 E15.12992
G1 X115.747 Y103.98 E15.1882
G1 X116.362 Y105.005 E15.22795
G1 X118.636 Y105 E15.30359
G1 X119.218 Y103.901 E15.34495
G1 X120.542 Y102.699 E15.40443
G1 X121.796 Y101.953 E15.45296
G1 X122.91 Y101.582 E15.49201
G1 X123.145 Y101.533 E15.49999
G1 X123.603 Y101.265 E15.51764
G1 X124.814 Y100.745 E15.56148
G1 X126.025 Y100.4 E15.60336
G1 X129.686 Y100.407 E15.72512
G1 X131.702 Y100.886 E15.79404
G1 X132.981 Y101.589 E15.84258
G1 X133.807 Y101.786 E15.87083
G1 X135.54 Y102.687 E15.93579
G1 X136.784 Y104.017 E15.99636
G1 X137.727 Y105.604 E16.05776
G1 X138.1 Y107.468 E16.12099
G1 X138.1 Y110.555 E16.22366
G1 X138.73 Y111.616 E16.2647
G1 X139.1 Y113.465 E16.32742
G1 X139.1 Y126.714 E16.76808
G1 X138.705 Y128.321 E16.82312
G1 X137.812 Y130.041 E16.88758
G1 X136.483 Y131.284 E16.94811
G1 X134.896 Y132.227 E17.0095
G1 X133.032 Y132.6 E17.07273
G1 X126.521 Y132.6 E17.28929
G1 X125.724 Y133.211 E17.32269
G1 X124.623 Y133.634 E17.36192
G1 X123.658 Y134.204 E17.3992
G1 X121.21 Y134.99 E17.48471
G1 X114.945 Y135 E17.69308
G1 X112.314 Y134.231 E17.78425
G1 X111.181 Y133.524 E17.82867
G1 X110.229 Y133.079 E17.86362
G1 X109.585 Y132.6 E17.89032
G1 X101.786 Y132.6 E18.14972
G1 X100.179 Y132.205 E18.20476
G1 X98.459 Y131.312 E18.26921
G1 X97.216 Y129.983 E18.32974
G1 X96.273 Y128.396 E18.39114
G1 X95.9 Y126.532 E18.45436
G1 X95.9 Y113.287 E18.89489
G1 X96.296 Y111.673 E18.95017
G1 X96.9 Y110.513 E18.99366
G1 X96.9 Y107.275 E19.10136
G1 X97.295 Y105.668 E19.1564
G1 X98.188 Y103.948 E19.22086
G0 F6000 X98.511 Y104.193
G1 F1200 X99.756 Y103.029 E19.27755
G1 X100.91 Y102.351 E19.32206
G1 X101.805 Y101.974 E19.35436
G1 X102.233 Y101.923 E19.3687
G1 X102.8 Y101.604 E19.39034
G1 X103.784 Y101.146 E19.42644
G1 X105.165 Y100.8 E19.47379
G1 X108.645 Y100.807 E19.58954
G1 X110.526 Y101.255 E19.65385
G1 X111.865 Y101.974 E19.7044
G1 X112.651 Y102.16 E19.73126
G1 X114.313 Y103.017 E19.79346
G1 X115.424 Y104.22 E19.84792
G1 X116.136 Y105.405 E19.8939
G1 X118.878 Y105.4 E19.9851
G1 X119.54 Y104.149 E20.03218
G1 X120.779 Y103.024 E20.08784
G1 X121.964 Y102.319 E20.1337
G1 X123.036 Y101.962 E20.17128
G1 X123.291 Y101.911 E20.17993
G1 X123.762 Y101.632 E20.19814
G1 X124.924 Y101.13 E20.24024
G1 X126.082 Y100.8 E20.28029
G1 X129.64 Y100.807 E20.39863
G1 X131.557 Y101.262 E20.46416
G1 X132.837 Y101.966 E20.51274
G1 X133.665 Y102.163 E20.54105
G1 X135.296 Y103.011 E20.60219
G1 X136.462 Y104.258 E20.65898
G1 X137.349 Y105.75 E20.71671
G1 X137.7 Y107.506 E20.77627
G1 X137.7 Y110.665 E20.88134
G1 X138.351 Y111.762 E20.92376
G1 X138.7 Y113.504 E20.98285
G1 X138.7 Y126.668 E21.42069
G1 X138.329 Y128.178 E21.47241
G1 X137.489 Y129.796 E21.53304
G1 X136.242 Y130.962 E21.58982
G1 X134.75 Y131.849 E21.64756
G1 X132.994 Y132.2 E21.70712
G1 X126.385 Y132.2 E21.92693
G1 X125.525 Y132.859 E21.96297
G1 X124.451 Y133.272 E22.00124
G1 X123.496 Y133.836 E22.03813
G1 X121.147 Y134.59 E22.12018
G1 X115.002 Y134.6 E22.32457
G1 X112.478 Y133.862 E22.41203
G1 X111.374 Y133.173 E22.45531
G1 X110.438 Y132.736 E22.48967
G1 X109.718 Y132.2 E22.51952
G1 X101.832 Y132.2 E22.78181
G1 X100.322 Y131.829 E22.83353
G1 X98.704 Y130.989 E22.89417
G1 X97.538 Y129.742 E22.95095
G1 X96.651 Y128.25 E23.00868
G1 X96.3 Y126.494 E23.06824
G1 X96.3 Y113.333 E23.50598
G1 X96.672 Y111.818 E23.55786
G1 X97.3 Y110.612 E23.60309
G1 X97.3 Y107.321 E23.71255
G1 X97.671 Y105.811 E23.76426
G1 X98.511 Y104.193 E23.8249
G0 F6000 X98.834 Y104.438
G1 F1200 X99.998 Y103.35 E23.87789
G1 X101.065 Y102.72 E23.9191
G1 X101.91 Y102.364 E23.9496
G1 X102.359 Y102.311 E23.96464
G1 X102.969 Y101.967 E23.98793
G1 X103.921 Y101.524 E24.02285
G1 X105.214 Y101.2 E24.06719
G1 X108.598 Y101.207 E24.17974
G1 X110.384 Y101.632 E24.2408
G1 X111.723 Y102.351 E24.29135
G1 X112.513 Y102.538 E24.31835
G1 X114.066 Y103.339 E24.37647
G1 X115.102 Y104.46 E24.42724
G1 X115.91 Y105.805 E24.47943
G1 X119.12 Y105.8 E24.58619
G1 X119.862 Y104.397 E24.63898
G1 X121.016 Y103.349 E24.69083
G1 X122.132 Y102.685 E24.73402
G1 X123.162 Y102.342 E24.77013
G1 X123.436 Y102.291 E24.7794
G1 X123.922 Y101.999 E24.79826
G1 X125.034 Y101.515 E24.83859
G1 X126.139 Y101.2 E24.87681
G1 X129.594 Y101.207 E24.99172
G1 X131.409 Y101.638 E25.05377
G1 X132.69 Y102.342 E25.10239
G1 X133.525 Y102.541 E25.13094
G1 X135.051 Y103.334 E25.18813
G1 X136.14 Y104.499 E25.24118
G1 X136.971 Y105.896 E25.29524
G1 X137.3 Y107.544 E25.35113
G1 X137.3 Y110.775 E25.4586
G1 X137.973 Y111.908 E25.50243
G1 X138.3 Y113.542 E25.55785
G1 X138.3 Y126.621 E25.99286
G1 X137.952 Y128.036 E26.04133
G1 X137.166 Y129.551 E26.09809
G1 X136.001 Y130.64 E26.15113
G1 X134.604 Y131.471 E26.2052
G1 X132.956 Y131.8 E26.26109
G1 X126.249 Y131.8 E26.48417
G1 X125.326 Y132.507 E26.52284
G1 X124.274 Y132.912 E26.56033
G1 X123.33 Y133.469 E26.59679
G1 X121.084 Y134.19 E26.67524
G1 X115.059 Y134.2 E26.87564
G1 X112.642 Y133.493 E26.95939
G1 X111.564 Y132.821 E27.00164
G1 X110.645 Y132.391 E27.03539
G1 X109.851 Y131.8 E27.06831
G1 X101.879 Y131.8 E27.33346
G1 X100.464 Y131.452 E27.38193
G1 X98.949 Y130.666 E27.43869
G1 X97.86 Y129.501 E27.49174
G1 X97.029 Y128.104 E27.5458
G1 X96.7 Y126.456 E27.60169
G1 X96.7 Y113.379 E28.03664
G1 X97.048 Y111.963 E28.08513
G1 X97.7 Y110.711 E28.13208
G1 X97.7 Y107.368 E28.24327
G1 X98.048 Y105.953 E28.29174
G1 X98.834 Y104.438 E28.34851
G0 F6000 X99.157 Y104.683
G1 F1200 X100.238 Y103.673 E28.39771
G1 X101.22 Y103.089 E28.43571
G1 X102.015 Y102.754 E28.4644
G1 X102.486 Y102.699 E28.48018
G1 X103.138 Y102.33 E28.50509
G1 X104.058 Y101.902 E28.53884
G1 X105.263 Y101.6 E28.58016
G1 X108.551 Y101.607 E28.68952
G1 X110.242 Y102.009 E28.74733
G1 X111.581 Y102.728 E28.79788
G1 X112.375 Y102.916 E28.82502
G1 X113.817 Y103.66 E28.87899
G1 X114.782 Y104.704 E28.92627
G1 X115.553 Y105.978 E28.9758
G1 X115.624 Y106.205 E28.98371
G1 X119.39 Y106.2 E29.10897
G1 X119.435 Y106.062 E29.1138
G1 X120.184 Y104.645 E29.16711
G1 X121.253 Y103.674 E29.21514
G1 X122.3 Y103.051 E29.25566
G1 X123.288 Y102.722 E29.2903
G1 X123.576 Y102.674 E29.30001
G1 X124.082 Y102.365 E29.31973
G1 X125.144 Y101.9 E29.35829
G1 X126.196 Y101.6 E29.39467
G1 X129.547 Y101.607 E29.50613
G1 X131.263 Y102.015 E29.56479
G1 X132.544 Y102.718 E29.61339
G1 X133.385 Y102.919 E29.64215
G1 X134.806 Y103.657 E29.69541
G1 X135.816 Y104.738 E29.74461
G1 X136.593 Y106.044 E29.79516
G1 X136.9 Y107.582 E29.84732
G1 X136.9 Y110.885 E29.95718
G1 X137.594 Y112.054 E30.0024
G1 X137.9 Y113.581 E30.05419
G1 X137.9 Y126.575 E30.48638
G1 X137.576 Y127.893 E30.53152
G1 X136.843 Y129.306 E30.58446
G1 X135.762 Y130.316 E30.63367
G1 X134.456 Y131.093 E30.68421
G1 X132.918 Y131.4 E30.73637
G1 X126.113 Y131.4 E30.96271
G1 X125.127 Y132.155 E31.00401
G1 X124.097 Y132.552 E31.04073
G1 X123.164 Y133.102 E31.07675
G1 X121.021 Y133.79 E31.15161
G1 X115.116 Y133.8 E31.34801
G1 X112.806 Y133.124 E31.42807
G1 X111.757 Y132.47 E31.46918
G1 X110.854 Y132.048 E31.50233
G1 X109.984 Y131.4 E31.53841
G1 X101.925 Y131.4 E31.80646
G1 X100.607 Y131.076 E31.8516
G1 X99.194 Y130.343 E31.90454
G1 X98.184 Y129.262 E31.95375
G1 X97.407 Y127.956 E32.00429
G1 X97.1 Y126.418 E32.05646
G1 X97.1 Y113.425 E32.4886
G1 X97.424 Y112.107 E32.53375
G1 X98.029 Y110.938 E32.57753
G1 X98.1 Y110.834 E32.58171
G1 X98.1 Y107.414 E32.69546
G1 X98.424 Y106.096 E32.74061
G1 X99.157 Y104.683 E32.79355
G0 F6000 X99.48 Y104.928
G1 F1200 X100.477 Y103.997 E32.83892
G1 X101.425 Y103.433 E32.87561
G1 X102.118 Y103.144 E32.90058
G1 X102.613 Y103.087 E32.91715
G1 X103.307 Y102.693 E32.9437
G1 X104.195 Y102.28 E32.97627
G1 X105.312 Y102 E33.01457
G1 X108.505 Y102.007 E33.12077
G1 X110.1 Y102.386 E33.1753
G1 X111.439 Y103.105 E33.22585
G1 X112.234 Y103.294 E33.25303
G1 X113.572 Y103.984 E33.3031
G1 X114.461 Y104.946 E33.34666
G1 X115.211 Y106.185 E33.39484
G1 X115.298 Y106.605 E33.4091
G1 X119.711 Y106.6 E33.55588
G1 X119.789 Y106.249 E33.56784
G1 X120.506 Y104.893 E33.61886
G1 X121.49 Y103.999 E33.66307
G1 X122.468 Y103.417 E33.70093
G1 X123.414 Y103.102 E33.73409
G1 X123.714 Y103.058 E33.74417
G1 X124.244 Y102.731 E33.76489
G1 X125.254 Y102.285 E33.80161
G1 X126.253 Y102 E33.83616
G1 X129.501 Y102.007 E33.94419
G1 X131.117 Y102.391 E33.99944
G1 X132.177 Y102.972 E34.03964
G1 X132.442 Y103.104 E34.04949
G1 X133.245 Y103.297 E34.07695
G1 X134.561 Y103.98 E34.12627
G1 X135.492 Y104.977 E34.17164
G1 X136.215 Y106.192 E34.21866
G1 X136.5 Y107.62 E34.2671
G1 X136.5 Y110.995 E34.37935
G1 X137.216 Y112.2 E34.42597
G1 X137.5 Y113.619 E34.4741
G1 X137.5 Y126.529 E34.90349
G1 X137.2 Y127.75 E34.94531
G1 X136.52 Y129.061 E34.99443
G1 X135.523 Y129.992 E35.0398
G1 X134.308 Y130.715 E35.08682
G1 X132.88 Y131 E35.13526
G1 X125.931 Y131 E35.36638
G1 X125.772 Y131.157 E35.37381
G1 X124.928 Y131.803 E35.40916
