;FLAVOR:Marlin
;TIME:13710
;Filament used: 4.95889m
;Layer height: 0.2
;MINX:94.7
;MINY:99.175
;MINZ:0.2
;MAXX:140.3
;MAXY:136.224
;MAXZ:58
;Generated with Cura_SteamEngine 5.3.0
M140 S50
M105
M190 S50
M104 S200
M105
M109 S200
M82 ;absolute extrusion mode
; Ender 3 Custom Start G-code
G92 E0 ; Reset Extruder
G28 ; Home all axes
G1 Z2.0 F3000 ; Move Z Axis up little to prevent scratching of Heat Bed
G1 X0.1 Y20 Z0.3 F5000.0 ; Move to start position
G1 X0.1 Y200.0 Z0.3 F1500.0 E15 ; Draw the first line
G1 X0.4 Y200.0 Z0.3 F5000.0 ; Move to side a little
G1 X0.4 Y20 Z0.3 F1500.0 E30 ; Draw the second line
G92 E0 ; Reset Extruder
G1 Z2.0 F3000 ; Move Z Axis up little to prevent scratching of Heat Bed
G1 X5 Y20 Z0.3 F5000.0 ; Move over to prevent blob squish
G92 E0
G92 E0
G1 F2700 E-5
;LAYER_COUNT:290
;LAYER:0
M107
G0 F6000 X97.222 Y103.183 Z0.2
;TYPE:SKIRT
G1 F2700 E0
G1 F1200 X98.836 Y101.692 E0.07308
G1 X100.314 Y100.879 E0.12919
G1 X101.372 Y100.442 E0.16726
G1 X101.668 Y100.386 E0.17728
G1 X102.594 Y99.882 E0.21234
G1 X104.806 Y99.175 E0.28958
G1 X108.83 Y99.177 E0.42342
G1 X111.016 Y99.742 E0.49852
G1 X111.984 Y100.236 E0.53466
G1 X112.401 Y100.43 E0.54996
G1 X113.217 Y100.624 E0.57786
G1 X115.298 Y101.697 E0.65573
G1 X116.701 Y103.215 E0.72448
G1 X117.508 Y104.553 E0.77645
G1 X118.258 Y103.156 E0.82919
G1 X119.728 Y101.786 E0.89602
G1 X121.422 Y100.751 E0.96205
G1 X122.66 Y100.407 E1.00478
G1 X123.064 Y100.187 E1.02008
G1 X123.987 Y99.733 E1.0543
G1 X125.984 Y99.18 E1.12322
G1 X129.826 Y99.177 E1.251
G1 X131.931 Y99.708 E1.32321
G1 X133.346 Y100.412 E1.37577
G1 X134.209 Y100.613 E1.40525
G1 X136.268 Y101.686 E1.48247
G1 X137.75 Y103.269 E1.55459
G1 X138.862 Y105.141 E1.62701
G1 X139.3 Y107.328 E1.7012
G1 X139.3 Y110.249 E1.79835
G1 X139.865 Y111.202 E1.8352
G1 X140.3 Y113.374 E1.90887
G1 X140.3 Y126.878 E2.35802
G1 X139.834 Y128.774 E2.42296
G1 X138.781 Y130.801 E2.49893
G1 X137.206 Y132.275 E2.57068
G1 X135.334 Y133.387 E2.6431
G1 X133.147 Y133.825 E2.71728
G1 X126.929 Y133.825 E2.92409
G1 X126.244 Y134.34 E2.9526
G1 X125.282 Y134.696 E2.98671
G1 X124.001 Y135.452 E3.03619
G1 X121.137 Y136.219 E3.1348
G1 X114.837 Y136.224 E3.34434
G1 X111.93 Y135.424 E3.44462
G1 X110.456 Y134.529 E3.50198
G1 X109.537 Y134.111 E3.53555
G1 X109.177 Y133.825 E3.55085
G1 X101.647 Y133.825 E3.8013
G1 X99.751 Y133.359 E3.86623
G1 X97.724 Y132.306 E3.94221
G1 X96.25 Y130.731 E4.01395
G1 X95.138 Y128.859 E4.08637
G1 X94.7 Y126.672 E4.16056
G1 X94.7 Y113.169 E4.60967
G1 X95.166 Y111.265 E4.67487
G1 X95.7 Y110.24 E4.71331
G1 X95.7 Y107.104 E4.81761
G1 X96.154 Y105.252 E4.88103
G1 X97.222 Y103.183 E4.95847
G0 F6000 X97.545 Y103.429
G1 F1200 X99.072 Y102.018 E5.02762
G1 X100.467 Y101.249 E5.08061
G1 X101.489 Y100.827 E5.11738
G1 X101.803 Y100.768 E5.12801
G1 X102.75 Y100.252 E5.16388
G1 X104.868 Y99.575 E5.23783
G1 X108.78 Y99.577 E5.36795
G1 X110.873 Y100.118 E5.43985
G1 X111.815 Y100.599 E5.47503
G1 X112.266 Y100.809 E5.49157
G1 X113.075 Y101.001 E5.51923
G1 X115.051 Y102.02 E5.59318
G1 X116.382 Y103.46 E5.6584
G1 X117.328 Y105.028 E5.7193
G1 X117.707 Y105.027 E5.73191
G1 X118.577 Y103.406 E5.7931
G1 X119.973 Y102.105 E5.85657
G1 X121.582 Y101.122 E5.91928
G1 X122.688 Y100.81 E5.9575
G1 X122.799 Y100.787 E5.96127
G1 X123.24 Y100.546 E5.97799
G1 X124.131 Y100.108 E6.01101
G1 X126.037 Y99.58 E6.07679
G1 X129.776 Y99.577 E6.20115
G1 X131.793 Y100.086 E6.27034
G1 X133.212 Y100.792 E6.32305
G1 X134.069 Y100.991 E6.35232
G1 X136.024 Y102.01 E6.42564
G1 X137.428 Y103.51 E6.49398
G1 X138.484 Y105.287 E6.56273
G1 X138.9 Y107.366 E6.63325
G1 X138.9 Y110.359 E6.73279
G1 X139.487 Y111.348 E6.77105
G1 X139.9 Y113.412 E6.84106
G1 X139.9 Y126.832 E7.28741
G1 X139.458 Y128.631 E7.34902
G1 X138.458 Y130.556 E7.42117
G1 X136.965 Y131.953 E7.48918
G1 X135.188 Y133.009 E7.55793
G1 X133.109 Y133.425 E7.62845
G1 X126.795 Y133.425 E7.83845
G1 X126.05 Y133.985 E7.86945
G1 X125.108 Y134.334 E7.90286
G1 X123.842 Y135.081 E7.95175
G1 X121.086 Y135.819 E8.04665
G1 X114.892 Y135.824 E8.25266
G1 X112.088 Y135.052 E8.34939
G1 X110.641 Y134.174 E8.40569
G1 X109.747 Y133.767 E8.43836
G1 X109.317 Y133.425 E8.45663
G1 X101.693 Y133.425 E8.71021
G1 X99.894 Y132.983 E8.77182
G1 X97.969 Y131.983 E8.84397
G1 X96.572 Y130.49 E8.91198
G1 X95.516 Y128.713 E8.98073
G1 X95.1 Y126.634 E9.05125
G1 X95.1 Y113.219 E9.49743
G1 X95.544 Y111.407 E9.55948
G1 X96.1 Y110.339 E9.59953
G1 X96.1 Y107.154 E9.70546
G1 X96.532 Y105.391 E9.76583
G1 X97.545 Y103.429 E9.83928
G0 F6000 X97.867 Y103.676
G1 F1200 X99.307 Y102.346 E9.90447
G1 X100.62 Y101.619 E9.95439
G1 X101.606 Y101.212 E9.98987
G1 X101.94 Y101.149 E10.00117
G1 X102.908 Y100.621 E10.03785
G1 X104.93 Y99.975 E10.10845
G1 X108.73 Y99.977 E10.23484
G1 X110.73 Y100.494 E10.30354
G1 X111.646 Y100.962 E10.33776
G1 X112.131 Y101.188 E10.35555
G1 X112.933 Y101.378 E10.38297
G1 X114.804 Y102.343 E10.45299
G1 X116.063 Y103.705 E10.51467
G1 X117.023 Y105.296 E10.57648
G1 X117.075 Y105.428 E10.5812
G1 X117.946 Y105.427 E10.61017
G1 X118.896 Y103.656 E10.67701
G1 X120.22 Y102.422 E10.73721
G1 X121.741 Y101.493 E10.79649
G1 X122.797 Y101.195 E10.83298
G1 X122.936 Y101.167 E10.8377
G1 X123.417 Y100.905 E10.85591
G1 X124.277 Y100.482 E10.88779
G1 X126.09 Y99.98 E10.95036
G1 X129.726 Y99.977 E11.07129
G1 X131.655 Y100.464 E11.13747
G1 X133.078 Y101.172 E11.19033
G1 X133.93 Y101.37 E11.21942
G1 X135.78 Y102.334 E11.28881
G1 X137.106 Y103.751 E11.35335
G1 X138.105 Y105.433 E11.41842
G1 X138.5 Y107.405 E11.48531
G1 X138.5 Y110.469 E11.58722
G1 X139.108 Y111.494 E11.62686
G1 X139.5 Y113.451 E11.69324
G1 X139.5 Y126.785 E12.13673
G1 X139.081 Y128.489 E12.1951
G1 X138.135 Y130.311 E12.26338
G1 X136.724 Y131.631 E12.32764
G1 X135.042 Y132.63 E12.39271
G1 X133.07 Y133.025 E12.4596
G1 X126.661 Y133.025 E12.67276
G1 X125.856 Y133.63 E12.70626
G1 X124.934 Y133.972 E12.73897
G1 X123.683 Y134.71 E12.78727
G1 X121.035 Y135.419 E12.87845
G1 X114.947 Y135.424 E13.08094
G1 X112.248 Y134.681 E13.17405
G1 X110.83 Y133.82 E13.22922
G1 X109.957 Y133.423 E13.26112
G1 X109.456 Y133.025 E13.2824
G1 X101.74 Y133.025 E13.53904
G1 X100.036 Y132.606 E13.5974
G1 X98.214 Y131.66 E13.66568
G1 X96.894 Y130.249 E13.72995
G1 X95.895 Y128.567 E13.79501
G1 X95.5 Y126.595 E13.8619
G1 X95.5 Y113.265 E14.30526
G1 X95.92 Y111.552 E14.36392
G1 X96.5 Y110.438 E14.4057
G1 X96.5 Y107.2 E14.51339
G1 X96.909 Y105.532 E14.57051
G1 X97.867 Y103.676 E14.63998
G0 F6000 X98.19 Y103.922
G1 F1200 X99.542 Y102.673 E14.7012
G1 X100.773 Y101.989 E14.74804
G1 X101.759 Y101.582 E14.78352
G1 X102.071 Y101.533 E14.79403
G1 X103.066 Y100.99 E14.83173
G1 X104.992 Y100.375 E14.89897
G1 X108.68 Y100.377 E15.02164
G1 X110.587 Y100.87 E15.08715
G1 X111.477 Y101.325 E15.12039
G1 X111.997 Y101.567 E15.13947
G1 X112.792 Y101.756 E15.16665
G1 X114.559 Y102.667 E15.23277
G1 X115.742 Y103.947 E15.29074
G1 X116.681 Y105.503 E15.35119
G1 X116.772 Y105.829 E15.36244
G1 X118.233 Y105.826 E15.41104
G1 X118.291 Y105.631 E15.4178
G1 X119.217 Y103.904 E15.48298
G1 X120.467 Y102.739 E15.53981
G1 X121.9 Y101.864 E15.59566
G1 X122.906 Y101.58 E15.63042
G1 X123.074 Y101.547 E15.63612
G1 X123.593 Y101.264 E15.65578
G1 X124.421 Y100.857 E15.68647
G1 X126.143 Y100.38 E15.7459
G1 X129.676 Y100.377 E15.86341
G1 X131.517 Y100.842 E15.92656
G1 X132.944 Y101.552 E15.97957
G1 X133.791 Y101.749 E16.0085
G1 X135.536 Y102.658 E16.07394
G1 X136.784 Y103.992 E16.1347
G1 X137.727 Y105.579 E16.1961
G1 X138.1 Y107.443 E16.25932
G1 X138.1 Y110.579 E16.36363
G1 X138.73 Y111.64 E16.40467
G1 X139.1 Y113.489 E16.46738
G1 X139.1 Y126.739 E16.90808
G1 X138.705 Y128.346 E16.96312
G1 X137.812 Y130.066 E17.02758
G1 X136.483 Y131.309 E17.0881
G1 X134.896 Y132.252 E17.1495
G1 X133.032 Y132.625 E17.21273
G1 X126.527 Y132.625 E17.42908
G1 X125.662 Y133.275 E17.46507
G1 X124.764 Y133.608 E17.49693
G1 X123.527 Y134.338 E17.5447
G1 X120.984 Y135.019 E17.63226
G1 X115.002 Y135.024 E17.83122
G1 X112.406 Y134.309 E17.92078
G1 X111.015 Y133.465 E17.9749
G1 X110.167 Y133.079 E18.00589
G1 X109.595 Y132.625 E18.03017
G1 X101.786 Y132.625 E18.2899
G1 X100.179 Y132.23 E18.34494
G1 X98.459 Y131.337 E18.4094
G1 X97.216 Y130.008 E18.46992
G1 X96.273 Y128.421 E18.53132
G1 X95.9 Y126.557 E18.59455
G1 X95.9 Y113.311 E19.03511
G1 X96.296 Y111.697 E19.09039
G1 X96.9 Y110.537 E19.13389
G1 X96.9 Y107.25 E19.24321
G1 X97.287 Y105.671 E19.29728
G1 X98.19 Y103.922 E19.36275
G0 F6000 X98.513 Y104.168
G1 F1200 X99.778 Y102.999 E19.42004
G1 X100.926 Y102.359 E19.46376
G1 X101.87 Y101.969 E19.49773
G1 X102.202 Y101.917 E19.5089
G1 X103.224 Y101.359 E19.54763
G1 X105.054 Y100.775 E19.61152
G1 X108.63 Y100.777 E19.73046
G1 X110.444 Y101.246 E19.79278
G1 X111.308 Y101.688 E19.82506
G1 X111.862 Y101.946 E19.84538
G1 X112.65 Y102.133 E19.87232
G1 X114.312 Y102.99 E19.93451
G1 X115.423 Y104.192 E19.98896
G1 X116.339 Y105.71 E20.04792
G1 X116.448 Y106.229 E20.06556
G1 X118.555 Y106.226 E20.13564
G1 X118.644 Y105.82 E20.14947
G1 X119.538 Y104.152 E20.21241
G1 X120.712 Y103.058 E20.26578
G1 X122.061 Y102.234 E20.31836
G1 X123.015 Y101.965 E20.35133
G1 X123.21 Y101.928 E20.35793
G1 X123.769 Y101.623 E20.37911
G1 X124.565 Y101.232 E20.4086
G1 X126.196 Y100.78 E20.4649
G1 X129.626 Y100.777 E20.57898
G1 X131.379 Y101.22 E20.63912
G1 X132.81 Y101.932 E20.69228
G1 X133.652 Y102.128 E20.72103
G1 X135.292 Y102.982 E20.78253
G1 X136.462 Y104.233 E20.8395
G1 X137.349 Y105.725 E20.89723
G1 X137.7 Y107.481 E20.95679
G1 X137.7 Y110.689 E21.06349
G1 X138.351 Y111.786 E21.10592
G1 X138.7 Y113.528 E21.16501
G1 X138.7 Y126.693 E21.60288
G1 X138.329 Y128.203 E21.65459
G1 X137.489 Y129.821 E21.71523
G1 X136.242 Y130.987 E21.77201
G1 X134.75 Y131.874 E21.82974
G1 X132.994 Y132.225 E21.8893
G1 X126.393 Y132.225 E22.10885
G1 X125.468 Y132.92 E22.14734
G1 X124.594 Y133.244 E22.17834
G1 X123.371 Y133.966 E22.22557
G1 X120.933 Y134.619 E22.30952
G1 X115.057 Y134.624 E22.50496
G1 X112.566 Y133.938 E22.59089
G1 X111.204 Y133.111 E22.64389
G1 X110.378 Y132.735 E22.67408
G1 X109.734 Y132.225 E22.7014
G1 X101.832 Y132.225 E22.96422
G1 X100.322 Y131.854 E23.01594
G1 X98.704 Y131.014 E23.07657
G1 X97.538 Y129.767 E23.13335
G1 X96.651 Y128.275 E23.19108
G1 X96.3 Y126.519 E23.25064
G1 X96.3 Y113.357 E23.68841
G1 X96.672 Y111.842 E23.7403
G1 X97.3 Y110.636 E23.78552
G1 X97.3 Y107.3 E23.89648
G1 X97.665 Y105.81 E23.9475
G1 X98.513 Y104.168 E24.00897
G0 F6000 X98.835 Y104.415
G1 F1200 X100.015 Y103.325 E24.0624
G1 X101.079 Y102.729 E24.10296
G1 X101.981 Y102.356 E24.13543
G1 X102.333 Y102.301 E24.14727
G1 X103.382 Y101.728 E24.18703
G1 X105.116 Y101.175 E24.24757
G1 X108.58 Y101.177 E24.36278
G1 X110.301 Y101.622 E24.4219
G1 X111.139 Y102.051 E24.45321
G1 X111.727 Y102.325 E24.47479
G1 X112.508 Y102.51 E24.50148
G1 X114.067 Y103.314 E24.55983
G1 X115.102 Y104.434 E24.61055
G1 X115.961 Y105.857 E24.66583
G1 X116.122 Y106.63 E24.69209
G1 X118.877 Y106.625 E24.78373
G1 X119.023 Y105.96 E24.80637
G1 X119.859 Y104.4 E24.86524
G1 X120.959 Y103.375 E24.91525
G1 X122.22 Y102.605 E24.96439
G1 X123.124 Y102.35 E24.99563
G1 X123.344 Y102.311 E25.00306
G1 X123.945 Y101.982 E25.02585
G1 X124.709 Y101.607 E25.05415
G1 X126.249 Y101.18 E25.10731
G1 X129.576 Y101.177 E25.21796
G1 X131.241 Y101.598 E25.27508
G1 X132.676 Y102.312 E25.32839
G1 X133.513 Y102.507 E25.35698
G1 X135.048 Y103.306 E25.41454
G1 X136.14 Y104.474 E25.46772
G1 X136.971 Y105.871 E25.52178
G1 X137.3 Y107.519 E25.57768
G1 X137.3 Y110.799 E25.68677
G1 X137.973 Y111.932 E25.7306
G1 X138.3 Y113.566 E25.78602
G1 X138.3 Y126.646 E26.22107
G1 X137.952 Y128.061 E26.26953
G1 X137.166 Y129.576 E26.3263
G1 X136.001 Y130.665 E26.37934
G1 X134.604 Y131.496 E26.4334
G1 X132.956 Y131.825 E26.4893
G1 X126.26 Y131.825 E26.71201
G1 X125.274 Y132.565 E26.75301
G1 X124.421 Y132.881 E26.78327
G1 X123.213 Y133.595 E26.82994
G1 X120.882 Y134.219 E26.9102
G1 X115.112 Y134.224 E27.10211
G1 X112.724 Y133.566 E27.18449
G1 X111.389 Y132.756 E27.23643
G1 X110.588 Y132.391 E27.26571
G1 X109.873 Y131.825 E27.29604
G1 X101.879 Y131.825 E27.56192
G1 X100.464 Y131.477 E27.61038
G1 X98.949 Y130.691 E27.66715
G1 X97.86 Y129.526 E27.72019
G1 X97.029 Y128.129 E27.77425
G1 X96.7 Y126.481 E27.83015
G1 X96.7 Y113.403 E28.26512
G1 X97.048 Y111.987 E28.31362
G1 X97.7 Y110.735 E28.36057
G1 X97.7 Y107.346 E28.47329
G1 X98.042 Y105.951 E28.52106
G1 X98.835 Y104.415 E28.57856
G0 F6000 X99.158 Y104.661
G1 F1200 X100.25 Y103.652 E28.62801
G1 X101.232 Y103.099 E28.66549
G1 X102.134 Y102.726 E28.69796
G1 X102.452 Y102.691 E28.7086
G1 X102.81 Y102.502 E28.72206
G1 X103.541 Y102.097 E28.74986
G1 X105.178 Y101.575 E28.80701
G1 X108.53 Y101.577 E28.91849
G1 X110.158 Y101.998 E28.97442
G1 X110.97 Y102.414 E29.00477
G1 X111.592 Y102.704 E29.02759
G1 X112.37 Y102.888 E29.05418
G1 X113.82 Y103.636 E29.10845
G1 X114.781 Y104.676 E29.15555
G1 X115.582 Y106.003 E29.2071
G1 X115.797 Y107.03 E29.242
G1 X119.199 Y107.025 E29.35515
G1 X119.402 Y106.1 E29.38665
G1 X120.18 Y104.648 E29.44144
G1 X121.204 Y103.694 E29.48799
G1 X122.381 Y102.975 E29.53386
G1 X123.194 Y102.744 E29.56197
G1 X123.479 Y102.693 E29.5716
G1 X124.121 Y102.341 E29.59595
G1 X124.853 Y101.982 E29.62307
G1 X126.302 Y101.58 E29.67308
G1 X129.526 Y101.577 E29.78031
G1 X131.103 Y101.976 E29.83442
G1 X132.542 Y102.692 E29.88788
G1 X133.374 Y102.886 E29.91629
G1 X134.804 Y103.63 E29.9699
G1 X135.816 Y104.713 E30.0192
G1 X136.593 Y106.019 E30.06975
G1 X136.9 Y107.557 E30.12191
G1 X136.9 Y110.909 E30.2334
G1 X137.594 Y112.078 E30.27862
G1 X137.9 Y113.605 E30.33041
G1 X137.9 Y126.6 E30.76263
G1 X137.576 Y127.918 E30.80777
G1 X136.843 Y129.331 E30.86072
G1 X135.762 Y130.341 E30.90992
G1 X134.456 Y131.118 E30.96047
G1 X132.918 Y131.425 E31.01263
G1 X126.102 Y131.425 E31.23933
G1 X126.009 Y131.514 E31.24361
G1 X125.08 Y132.21 E31.28222
G1 X124.251 Y132.518 E31.31163
G1 X123.057 Y133.223 E31.35775
G1 X120.831 Y133.819 E31.4344
G1 X115.167 Y133.824 E31.62278
G1 X112.884 Y133.195 E31.70154
G1 X111.578 Y132.402 E31.75236
G1 X110.798 Y132.047 E31.78087
G1 X110.012 Y131.425 E31.8142
G1 X101.925 Y131.425 E32.08318
G1 X100.607 Y131.101 E32.12832
G1 X99.194 Y130.368 E32.18126
G1 X98.184 Y129.287 E32.23047
G1 X97.407 Y127.981 E32.28101
G1 X97.1 Y126.443 E32.33318
G1 X97.1 Y113.449 E32.76536
G1 X97.424 Y112.131 E32.8105
G1 X98.029 Y110.962 E32.85428
G1 X98.1 Y110.858 E32.85847
G1 X98.1 Y107.396 E32.97362
G1 X98.42 Y106.09 E33.01834
G1 X99.158 Y104.661 E33.07183
G0 F6000 X99.479 Y104.91
G1 F1200 X100.488 Y103.977 E33.11754
G1 X101.428 Y103.448 E33.15341
G1 X102.236 Y103.117 E33.18246
G1 X102.573 Y103.079 E33.19374
G1 X103.004 Y102.852 E33.20994
G1 X103.702 Y102.465 E33.23648
G1 X105.239 Y101.975 E33.29014
G1 X108.48 Y101.977 E33.39793
G1 X110.015 Y102.374 E33.45067
G1 X110.788 Y102.77 E33.47956
G1 X111.461 Y103.084 E33.50426
G1 X112.232 Y103.266 E33.53061
G1 X113.571 Y103.957 E33.58072
G1 X114.462 Y104.921 E33.62438
G1 X115.205 Y106.152 E33.6722
G1 X115.473 Y107.43 E33.71564
G1 X119.521 Y107.425 E33.85027
G1 X119.781 Y106.24 E33.89062
G1 X120.501 Y104.896 E33.94134
G1 X121.449 Y104.013 E33.98443
G1 X122.542 Y103.345 E34.02703
G1 X123.303 Y103.129 E34.05334
G1 X123.537 Y103.089 E34.06124
G1 X123.772 Y102.988 E34.06974
G1 X124.297 Y102.7 E34.08966
G1 X124.997 Y102.357 E34.11559
G1 X126.355 Y101.98 E34.16246
G1 X129.476 Y101.977 E34.26627
G1 X130.965 Y102.354 E34.31735
G1 X132.408 Y103.072 E34.37096
G1 X133.235 Y103.265 E34.39921
G1 X134.56 Y103.954 E34.44888
G1 X135.492 Y104.952 E34.4943
G1 X136.215 Y106.167 E34.54132
G1 X136.5 Y107.595 E34.58975
