;FLAVOR:Marlin
;TIME:20214
;Filament used: 7.81323m
;Layer height: 0.2
;MINX:93.7
;MINY:79.601
;MINZ:0.2
;MAXX:141.3
;MAXY:154.193
;MAXZ:38.8
;Generated with Cura_SteamEngine 5.3.0
M140 S50
M105
M190 S50
M104 S200
M105
M109 S200
M82 ;absolute extrusion mode
; Ender 3 Custom Start G-code
G92 E0 ; Reset Extruder
G28 ; Home all axes
G1 Z2.0 F3000 ; Move Z Axis up little to prevent scratching of Heat Bed
G1 X0.1 Y20 Z0.3 F5000.0 ; Move to start position
G1 X0.1 Y200.0 Z0.3 F1500.0 E15 ; Draw the first line
G1 X0.4 Y200.0 Z0.3 F5000.0 ; Move to side a little
G1 X0.4 Y20 Z0.3 F1500.0 E30 ; Draw the second line
G92 E0 ; Reset Extruder
G1 Z2.0 F3000 ; Move Z Axis up little to prevent scratching of Heat Bed
G1 X5 Y20 Z0.3 F5000.0 ; Move over to prevent blob squish
G92 E0
G92 E0
G1 F2700 E-5
;LAYER_COUNT:194
;LAYER:0
M107
G0 F6000 X95.219 Y82.625 Z0.2
;TYPE:SKIRT
G1 F2700 E0
G1 F1200 X96.794 Y81.151 E0.07175
G1 X98.666 Y80.039 E0.14417
G1 X100.853 Y79.601 E0.21835
G1 X134.353 Y79.602 E1.33257
G1 X136.249 Y80.068 E1.3975
G1 X138.276 Y81.121 E1.47348
G1 X139.75 Y82.696 E1.54522
G1 X140.862 Y84.568 E1.61764
G1 X141.3 Y86.755 E1.69183
G1 X141.3 Y131.345 E3.1749
G1 X140.849 Y133.187 E3.23797
G1 X139.774 Y135.269 E3.3159
G1 X138.852 Y136.117 E3.35757
G1 X139.862 Y137.817 E3.42334
G1 X140.3 Y140.004 E3.49752
G1 X140.3 Y147.29 E3.73986
G1 X139.863 Y149.08 E3.80114
G1 X138.774 Y151.189 E3.88008
G1 X137.217 Y152.628 E3.9506
G1 X135.286 Y153.769 E4.0252
G1 X133.145 Y154.192 E4.09779
G1 X101.647 Y154.193 E5.14541
G1 X99.751 Y153.727 E5.21035
G1 X97.724 Y152.674 E5.28632
G1 X96.25 Y151.099 E5.35807
G1 X95.138 Y149.227 E5.43049
G1 X94.7 Y147.04 E5.50468
G1 X94.7 Y139.798 E5.74555
G1 X95.166 Y137.902 E5.81048
G1 X96.103 Y136.097 E5.87813
G1 X95.242 Y135.165 E5.92033
G1 X94.135 Y133.305 E5.99232
G1 X93.7 Y131.131 E6.06606
G1 X93.7 Y86.548 E7.5489
G1 X94.166 Y84.652 E7.61383
G1 X95.219 Y82.625 E7.68981
G0 F6000 X95.542 Y82.87
G1 F1200 X97.035 Y81.473 E7.75781
G1 X98.812 Y80.417 E7.82656
G1 X100.891 Y80.001 E7.89708
G1 X134.307 Y80.002 E9.0085
G1 X136.106 Y80.444 E9.07012
G1 X138.031 Y81.444 E9.14227
G1 X139.428 Y82.937 E9.21027
G1 X140.484 Y84.714 E9.27902
G1 X140.9 Y86.793 E9.34954
G1 X140.9 Y131.295 E10.82969
G1 X140.47 Y133.05 E10.88978
G1 X139.452 Y135.022 E10.9636
G1 X138.316 Y136.067 E11.01493
G1 X138.45 Y136.224 E11.0218
G1 X139.484 Y137.963 E11.08909
G1 X139.9 Y140.042 E11.15961
G1 X139.9 Y147.24 E11.39902
G1 X139.484 Y148.943 E11.45732
G1 X138.452 Y150.942 E11.53215
G1 X136.975 Y152.307 E11.59904
G1 X135.142 Y153.39 E11.66985
G1 X133.107 Y153.792 E11.73884
G1 X101.693 Y153.793 E12.78368
G1 X99.894 Y153.351 E12.84529
G1 X97.969 Y152.351 E12.91744
G1 X96.572 Y150.858 E12.98545
G1 X95.516 Y149.081 E13.0542
G1 X95.1 Y147.002 E13.12472
G1 X95.1 Y139.844 E13.36279
G1 X95.542 Y138.045 E13.42441
G1 X96.511 Y136.179 E13.49434
G1 X96.609 Y136.056 E13.49957
G1 X95.566 Y134.927 E13.55069
G1 X94.513 Y133.157 E13.61919
G1 X94.1 Y131.093 E13.6892
G1 X94.1 Y86.594 E15.16925
G1 X94.542 Y84.795 E15.23086
G1 X95.542 Y82.87 E15.30301
G0 F6000 X95.865 Y83.115
G1 F1200 X97.276 Y81.795 E15.36728
G1 X98.958 Y80.796 E15.43234
G1 X100.93 Y80.401 E15.49923
G1 X134.26 Y80.402 E16.60779
G1 X135.964 Y80.821 E16.66616
G1 X137.786 Y81.767 E16.73444
G1 X139.106 Y83.178 E16.7987
G1 X140.105 Y84.86 E16.86377
G1 X140.5 Y86.832 E16.93066
G1 X140.5 Y131.245 E18.40784
G1 X140.092 Y132.911 E18.46489
G1 X139.129 Y134.776 E18.53471
G1 X137.75 Y136.045 E18.59704
G1 X138.106 Y136.428 E18.61443
G1 X139.105 Y138.109 E18.67947
G1 X139.5 Y140.081 E18.74636
G1 X139.5 Y147.19 E18.9828
G1 X139.105 Y148.806 E19.03813
G1 X138.131 Y150.693 E19.10876
G1 X136.731 Y151.987 E19.17217
G1 X134.998 Y153.011 E19.23912
G1 X133.069 Y153.392 E19.30452
G1 X101.74 Y153.393 E20.34653
G1 X100.036 Y152.974 E20.40489
G1 X98.214 Y152.028 E20.47317
G1 X96.894 Y150.617 E20.53744
G1 X95.895 Y148.935 E20.6025
G1 X95.5 Y146.963 E20.6694
G1 X95.5 Y139.891 E20.90461
G1 X95.919 Y138.187 E20.96297
G1 X96.866 Y136.363 E21.03133
G1 X97.204 Y136.047 E21.04672
G1 X96.968 Y135.855 E21.05684
G1 X95.889 Y134.687 E21.10973
G1 X94.892 Y133.011 E21.17459
G1 X94.5 Y131.054 E21.24097
G1 X94.5 Y86.641 E22.71815
G1 X94.919 Y84.937 E22.77652
G1 X95.865 Y83.115 E22.8448
G0 F6000 X96.188 Y83.36
G1 F1200 X97.517 Y82.117 E22.90532
G1 X99.104 Y81.174 E22.96672
G1 X100.968 Y80.801 E23.02995
G1 X134.214 Y80.802 E24.13571
G1 X135.821 Y81.197 E24.19075
G1 X137.541 Y82.09 E24.25521
G1 X138.784 Y83.419 E24.31573
G1 X139.727 Y85.006 E24.37713
G1 X140.1 Y86.87 E24.44036
G1 X140.1 Y131.195 E25.91461
G1 X139.713 Y132.774 E25.96869
G1 X138.807 Y134.529 E26.03438
G1 X137.598 Y135.642 E26.08903
G1 X137.493 Y135.715 E26.09329
G1 X137.28 Y136.128 E26.10874
G1 X137.784 Y136.668 E26.13331
G1 X138.727 Y138.255 E26.19471
G1 X139.1 Y140.119 E26.25794
G1 X139.1 Y147.14 E26.49146
G1 X138.727 Y148.667 E26.54374
G1 X137.808 Y150.447 E26.61037
G1 X136.491 Y151.664 E26.67001
G1 X134.853 Y152.632 E26.73329
G1 X133.031 Y152.992 E26.79506
G1 X101.786 Y152.993 E27.83427
G1 X100.179 Y152.598 E27.88931
G1 X98.459 Y151.705 E27.95377
G1 X97.216 Y150.376 E28.0143
G1 X96.273 Y148.789 E28.07569
G1 X95.9 Y146.925 E28.13892
G1 X95.9 Y139.937 E28.37134
G1 X96.295 Y138.33 E28.42638
G1 X97.188 Y136.61 E28.49084
G1 X97.712 Y136.119 E28.51472
G1 X97.505 Y135.771 E28.52819
G1 X97.262 Y135.584 E28.53839
G1 X96.212 Y134.447 E28.58987
G1 X95.271 Y132.865 E28.65109
G1 X94.9 Y131.015 E28.71384
G1 X94.9 Y86.687 E30.1882
G1 X95.295 Y85.08 E30.24324
G1 X96.188 Y83.36 E30.3077
G0 F6000 X96.511 Y83.605
G1 F1200 X97.758 Y82.439 E30.36448
G1 X99.25 Y81.552 E30.42221
G1 X101.006 Y81.201 E30.48177
G1 X134.168 Y81.202 E31.58474
G1 X135.678 Y81.573 E31.63646
G1 X137.296 Y82.413 E31.6971
G1 X138.462 Y83.66 E31.75388
G1 X139.349 Y85.152 E31.81161
G1 X139.7 Y86.908 E31.87117
G1 X139.7 Y131.145 E33.3425
G1 X139.335 Y132.635 E33.39352
G1 X138.484 Y134.283 E33.45521
G1 X137.368 Y135.314 E33.50574
G1 X137.184 Y135.443 E33.51322
G1 X136.795 Y136.195 E33.54138
G1 X137.462 Y136.909 E33.57388
G1 X138.349 Y138.401 E33.63161
G1 X138.7 Y140.157 E33.69117
G1 X138.7 Y147.09 E33.92176
G1 X138.348 Y148.53 E33.97106
G1 X137.486 Y150.2 E34.03357
G1 X136.249 Y151.343 E34.08959
G1 X134.709 Y152.253 E34.14908
G1 X132.993 Y152.592 E34.20726
G1 X101.832 Y152.593 E35.24368
G1 X100.322 Y152.222 E35.2954
G1 X98.704 Y151.382 E35.35603
G1 X97.538 Y150.135 E35.41281
G1 X96.651 Y148.643 E35.47054
G1 X96.3 Y146.887 E35.53011
G1 X96.3 Y139.983 E35.75973
G1 X96.671 Y138.473 E35.81145
G1 X97.511 Y136.855 E35.87208
G1 X98.221 Y136.19 E35.90444
G1 X97.809 Y135.498 E35.93123
G1 X97.556 Y135.313 E35.94165
G1 X96.536 Y134.209 E35.99164
G1 X95.649 Y132.718 E36.04935
G1 X95.3 Y130.976 E36.10844
G1 X95.3 Y86.733 E37.57996
G1 X95.671 Y85.223 E37.63168
G1 X96.511 Y83.605 E37.69232
G0 F6000 X96.834 Y83.85
G1 F1200 X97.999 Y82.761 E37.74536
G1 X99.396 Y81.93 E37.79942
G1 X101.044 Y81.601 E37.85531
G1 X134.121 Y81.602 E38.95546
G1 X135.536 Y81.95 E39.00393
G1 X137.051 Y82.736 E39.06069
G1 X138.14 Y83.901 E39.11373
G1 X138.971 Y85.298 E39.1678
G1 X139.3 Y86.946 E39.22369
G1 X139.3 Y131.099 E40.69223
G1 X138.958 Y132.494 E40.74
G1 X138.162 Y134.036 E40.79771
G1 X137.097 Y135.02 E40.84594
G1 X136.877 Y135.167 E40.85474
G1 X136.31 Y136.262 E40.89576
G1 X137.14 Y137.15 E40.93618
G1 X137.971 Y138.547 E40.99025
G1 X138.3 Y140.195 E41.04614
G1 X138.3 Y147.04 E41.27381
G1 X137.97 Y148.391 E41.32006
G1 X137.163 Y149.954 E41.37857
G1 X136.007 Y151.022 E41.43091
G1 X134.565 Y151.874 E41.48662
G1 X132.955 Y152.192 E41.5412
G1 X101.879 Y152.193 E42.5748
G1 X100.464 Y151.845 E42.62326
G1 X98.949 Y151.059 E42.68003
G1 X97.86 Y149.894 E42.73307
G1 X97.029 Y148.497 E42.78713
G1 X96.7 Y146.849 E42.84303
G1 X96.7 Y140.03 E43.06983
G1 X97.048 Y138.615 E43.11829
G1 X97.834 Y137.1 E43.17506
G1 X98.73 Y136.262 E43.21586
G1 X98.108 Y135.217 E43.25631
G1 X97.85 Y135.042 E43.26668
G1 X96.859 Y133.969 E43.31526
G1 X96.028 Y132.572 E43.36933
G1 X95.7 Y130.937 E43.42479
G1 X95.7 Y86.78 E44.89346
G1 X96.048 Y85.365 E44.94192
G1 X96.834 Y83.85 E44.99869
G0 F6000 X97.157 Y84.095
G1 F1200 X98.238 Y83.085 E45.04789
G1 X99.544 Y82.308 E45.09844
G1 X101.082 Y82.001 E45.1506
G1 X134.075 Y82.002 E46.24795
G1 X135.393 Y82.326 E46.2931
G1 X136.806 Y83.059 E46.34604
G1 X137.816 Y84.14 E46.39524
G1 X138.593 Y85.446 E46.44579
G1 X138.9 Y86.984 E46.49795
G1 X138.9 Y131.049 E47.96356
G1 X138.58 Y132.355 E48.00828
G1 X137.839 Y133.79 E48.062
G1 X136.826 Y134.726 E48.10787
G1 X136.572 Y134.887 E48.11787
G1 X135.825 Y136.329 E48.17189
G1 X136.816 Y137.389 E48.22015
G1 X137.593 Y138.695 E48.2707
G1 X137.9 Y140.233 E48.32286
G1 X137.9 Y146.99 E48.5476
G1 X137.591 Y148.254 E48.59088
G1 X136.841 Y149.707 E48.64526
G1 X135.767 Y150.699 E48.69389
G1 X134.42 Y151.495 E48.74593
G1 X132.917 Y151.792 E48.79689
G1 X101.925 Y151.793 E49.82768
G1 X100.607 Y151.469 E49.87283
G1 X99.194 Y150.736 E49.92577
G1 X98.184 Y149.655 E49.97497
G1 X97.407 Y148.349 E50.02552
G1 X97.1 Y146.811 E50.07768
G1 X97.1 Y140.076 E50.30169
G1 X97.424 Y138.758 E50.34683
G1 X98.157 Y137.345 E50.39978
G1 X99.239 Y136.334 E50.44903
G1 X98.505 Y135.101 E50.49675
G1 X98.446 Y134.954 E50.50202
G1 X98.144 Y134.771 E50.51377
G1 X97.182 Y133.729 E50.56094
G1 X96.407 Y132.426 E50.61136
G1 X96.1 Y130.898 E50.6632
G1 X96.1 Y86.826 E52.12904
G1 X96.424 Y85.508 E52.17418
G1 X97.157 Y84.095 E52.22712
G0 F6000 X97.48 Y84.34
G1 F1200 X98.477 Y83.409 E52.27249
G1 X99.692 Y82.686 E52.31952
G1 X101.12 Y82.401 E52.36795
G1 X134.029 Y82.402 E53.46251
G1 X135.25 Y82.702 E53.50433
G1 X136.561 Y83.382 E53.55345
G1 X137.492 Y84.379 E53.59882
G1 X138.215 Y85.594 E53.64584
G1 X138.5 Y87.022 E53.69427
G1 X138.5 Y131.003 E55.15709
G1 X138.203 Y132.214 E55.19856
G1 X137.518 Y133.541 E55.24823
G1 X136.554 Y134.432 E55.29189
G1 X136.221 Y134.633 E55.30483
G1 X136.162 Y134.809 E55.311
G1 X135.524 Y136.041 E55.35715
G1 X135.131 Y136.408 E55.37503
G1 X135.561 Y136.631 E55.39114
G1 X136.492 Y137.628 E55.43651
G1 X137.215 Y138.843 E55.48354
G1 X137.5 Y140.271 E55.53197
G1 X137.5 Y146.94 E55.75378
G1 X137.213 Y148.115 E55.79401
G1 X136.518 Y149.461 E55.84439
G1 X135.527 Y150.376 E55.88925
G1 X134.275 Y151.116 E55.93763
G1 X132.879 Y151.392 E55.98496
G1 X101.971 Y151.393 E57.01296
G1 X100.75 Y151.093 E57.05478
G1 X99.439 Y150.413 E57.1039
G1 X98.508 Y149.416 E57.14927
G1 X97.785 Y148.201 E57.19629
G1 X97.5 Y146.773 E57.24473
G1 X97.5 Y140.122 E57.46594
G1 X97.8 Y138.901 E57.50776
G1 X98.48 Y137.59 E57.55688
G1 X99.475 Y136.661 E57.60216
G1 X99.889 Y136.415 E57.61817
G1 X99.511 Y136.01 E57.6366
G1 X98.849 Y134.897 E57.67967
G1 X98.773 Y134.673 E57.68754
G1 X98.438 Y134.5 E57.70008
G1 X97.506 Y133.491 E57.74576
G1 X96.785 Y132.279 E57.79267
G1 X96.5 Y130.859 E57.84084
G1 X96.5 Y86.872 E59.30385
G1 X96.8 Y85.651 E59.34567
G1 X97.48 Y84.34 E59.39479
G0 F6000 X97.803 Y84.585
G1 F1200 X98.716 Y83.733 E59.43633
G1 X99.84 Y83.064 E59.47983
G1 X101.158 Y82.801 E59.52453
G1 X133.983 Y82.802 E60.6163
G1 X135.107 Y83.078 E60.65479
G1 X136.316 Y83.705 E60.70009
G1 X137.168 Y84.618 E60.74162
G1 X137.837 Y85.742 E60.78513
G1 X138.1 Y87.06 E60.82983
G1 X138.1 Y130.953 E62.28972
G1 X137.825 Y132.075 E62.32814
G1 X137.195 Y133.295 E62.37381
G1 X136.312 Y134.111 E62.4138
G1 X135.88 Y134.372 E62.43058
G1 X135.807 Y134.625 E62.43934
G1 X135.2 Y135.796 E62.48321
G1 X134.444 Y136.502 E62.51762
G1 X135.316 Y136.954 E62.55028
G1 X136.168 Y137.867 E62.59182
G1 X136.837 Y138.991 E62.63532
G1 X137.1 Y140.309 E62.68002
G1 X137.1 Y146.89 E62.89891
G1 X136.834 Y147.978 E62.93616
G1 X136.196 Y149.214 E62.98243
G1 X135.286 Y150.055 E63.02364
G1 X134.131 Y150.737 E63.06825
G1 X132.841 Y150.992 E63.11199
G1 X102.017 Y150.993 E64.1372
G1 X100.893 Y150.717 E64.17569
G1 X99.684 Y150.09 E64.22099
G1 X98.832 Y149.177 E64.26252
G1 X98.163 Y148.053 E64.30603
G1 X97.9 Y146.735 E64.35073
G1 X97.9 Y140.168 E64.56915
G1 X98.176 Y139.044 E64.60764
G1 X98.803 Y137.835 E64.65294
G1 X99.716 Y136.983 E64.69448
G1 X100.52 Y136.505 E64.72559
G1 X99.831 Y135.766 E64.75919
G1 X99.193 Y134.693 E64.80071
G1 X99.111 Y134.398 E64.8109
G1 X98.684 Y134.177 E64.82689
G1 X97.83 Y133.253 E64.86874
G1 X97.163 Y132.132 E64.91212
G1 X96.9 Y130.82 E64.95663
G1 X96.9 Y86.918 E66.41681
G1 X97.176 Y85.794 E66.45531
G1 X97.803 Y84.585 E66.50061
G0 F6000 X98.125 Y84.832
G1 F1200 X98.958 Y84.055 E66.53849
G1 X99.988 Y83.442 E66.57836
G1 X101.196 Y83.201 E66.61933
G1 X133.936 Y83.202 E67.70827
G1 X134.965 Y83.455 E67.74351
G1 X136.069 Y84.027 E67.78486
G1 X136.846 Y84.86 E67.82275
G1 X137.459 Y85.89 E67.86262
G1 X137.7 Y87.098 E67.90359
G1 X137.7 Y130.907 E69.36068
G1 X137.448 Y131.934 E69.39585
G1 X136.874 Y133.046 E69.43748
G1 X136.067 Y133.792 E69.47403
G1 X135.532 Y134.115 E69.49481
G1 X135.452 Y134.441 E69.50598
G1 X134.878 Y135.549 E69.54748
G1 X134.045 Y136.326 E69.58537
G1 X133.572 Y136.607 E69.60367
G1 X133.965 Y136.704 E69.61713
G1 X135.069 Y137.276 E69.65849
G1 X135.846 Y138.109 E69.69637
G1 X136.459 Y139.139 E69.73624
G1 X136.7 Y140.347 E69.77721
G1 X136.7 Y146.84 E69.99317
G1 X136.456 Y147.839 E70.02737
G1 X135.874 Y148.966 E70.06956
G1 X135.042 Y149.735 E70.10724
G1 X133.987 Y150.358 E70.14799
G1 X132.803 Y150.592 E70.18813
G1 X102.064 Y150.593 E71.21052
G1 X101.035 Y150.34 E71.24576
G1 X99.931 Y149.768 E71.28712
G1 X99.154 Y148.935 E71.325
G1 X98.541 Y147.905 E71.36487
G1 X98.3 Y146.697 E71.40584
G1 X98.3 Y140.215 E71.62143
G1 X98.553 Y139.186 E71.65668
G1 X99.125 Y138.082 E71.69803
G1 X99.958 Y137.305 E71.73592
G1 X100.988 Y136.692 E71.77578
G1 X101.414 Y136.607 E71.79023
G1 X100.928 Y136.355 E71.80844
G1 X100.152 Y135.523 E71.84628
G1 X99.537 Y134.489 E71.8863
G1 X99.467 Y134.132 E71.8984
G1 X98.932 Y133.855 E71.91843
G1 X98.152 Y133.012 E71.95663
G1 X97.541 Y131.985 E71.99638
G1 X97.3 Y130.781 E72.03722
G1 X97.3 Y86.965 E73.49454
G1 X97.553 Y85.936 E73.52979
G1 X98.125 Y84.832 E73.57114
G0 F6000 X98.447 Y85.079
G1 F1200 X99.2 Y84.377 E73.60538
G1 X100.136 Y83.82 E73.64161
G1 X101.234 Y83.601 E73.67885
G1 X133.89 Y83.602 E74.76499
G1 X134.822 Y83.831 E74.79691
G1 X135.822 Y84.349 E74.83437
G1 X136.524 Y85.102 E74.86861
G1 X137.081 Y86.038 E74.90484
G1 X137.3 Y87.136 E74.94208
G1 X137.3 Y130.861 E76.39638
G1 X137.072 Y131.791 E76.42822
G1 X136.551 Y132.8 E76.46599
G1 X135.825 Y133.471 E76.49887
G1 X135.184 Y133.858 E76.52378
G1 X135.076 Y134.298 E76.53885
G1 X134.556 Y135.302 E76.57645
G1 X133.803 Y136.004 E76.61069
G1 X132.867 Y136.561 E76.64692
G1 X131.769 Y136.78 E76.68416
G1 X103.107 Y136.78 E77.63746
G1 X102.175 Y136.551 E77.66938
G1 X101.175 Y136.033 E77.70684
G1 X100.473 Y135.28 E77.74108
G1 X99.916 Y134.343 E77.77734
G1 X99.821 Y133.865 E77.79354
G1 X99.178 Y133.532 E77.81763
G1 X98.474 Y132.772 E77.85208
G1 X97.919 Y131.839 E77.88819
G1 X97.7 Y130.743 E77.92537
G1 X97.7 Y87.011 E79.3799
G1 X97.929 Y86.079 E79.41182
G1 X98.447 Y85.079 E79.44928
G0 F6000 X98.769 Y85.326
G1 F1200 X99.442 Y84.699 E79.47987
G1 X100.284 Y84.198 E79.51246
G1 X101.272 Y84.001 E79.54596
G1 X133.844 Y84.002 E80.62931
G1 X134.679 Y84.207 E80.65791
G1 X135.575 Y84.671 E80.69147
G1 X136.202 Y85.344 E80.72206
G1 X136.703 Y86.186 E80.75465
G1 X136.9 Y87.174 E80.78816
G1 X136.9 Y130.815 E82.23966
G1 X136.695 Y131.65 E82.26826
G1 X136.229 Y132.553 E82.30206
G1 X135.583 Y133.15 E82.33131
G1 X134.836 Y133.601 E82.36034
G1 X134.7 Y134.155 E82.37931
G1 X134.234 Y135.055 E82.41302
G1 X133.561 Y135.682 E82.44361
G1 X132.719 Y136.183 E82.4762
G1 X131.731 Y136.38 E82.50971
G1 X103.153 Y136.38 E83.46022
