;FLAVOR:Marlin
;TIME:16775
;Filament used: 3.35224m
;Layer height: 0.05
;Generated with Cura_SteamEngine 1.2.3
M140 S60
M104 S200
M109 S200
G28
G1 Z50.00 F400
G92 E0
G1 F200 E3
G92 E0
M132 X Y Z A
M907 X100 Y100 Z50 A100
;LAYER_COUNT:217
;LAYER:-12
G1 F3600 E-3
M107
M204 S2000
G0 F3600 X27.1 Y27.003 Z0.24
G1 F3600 E0
G1 F450 X27.062 Y28.058 E0.08427
G1 X26.941 Y29.145 E0.17157
G1 X26.753 Y30.167 E0.25452
G1 X26.485 Y31.191 E0.33902
G1 X26.131 Y32.23 E0.42664
G1 X25.724 Y33.189 E0.5098
G1 X25.243 Y34.126 E0.59387
G1 X24.671 Y35.064 E0.68157
G1 X24.056 Y35.924 E0.76597
G1 X23.378 Y36.739 E0.85059
G1 X22.647 Y37.497 E0.93465
G1 X21.838 Y38.222 E1.02137
G1 X20.994 Y38.874 E1.1065
G1 X20.116 Y39.456 E1.19058
G1 X19.178 Y39.983 E1.27647
G1 X18.222 Y40.432 E1.36078
G1 X17.215 Y40.817 E1.44684
G1 X16.197 Y41.124 E1.53171
G1 X15.165 Y41.355 E1.61613
G1 X14.099 Y41.512 E1.70214
G1 X13.047 Y41.589 E1.78634
G1 X12.482 Y41.6 E1.83145
G1 X-12.495 Y41.6 E3.82522
G1 X-13.557 Y41.562 E3.91005
G1 X-14.645 Y41.441 E3.99743
G1 X-15.667 Y41.253 E4.08038
G1 X-16.691 Y40.985 E4.16487
G1 X-17.73 Y40.631 E4.25249
G1 X-18.689 Y40.224 E4.33565
G1 X-19.647 Y39.732 E4.42162
G1 X-20.554 Y39.178 E4.50646
G1 X-21.424 Y38.556 E4.59183
G1 X-22.239 Y37.878 E4.67646
G1 X-22.997 Y37.147 E4.76051
G1 X-23.722 Y36.338 E4.84723
G1 X-24.378 Y35.489 E4.93287
G1 X-24.956 Y34.616 E5.01645
G1 X-25.483 Y33.678 E5.10233
G1 X-25.932 Y32.722 E5.18664
G1 X-26.317 Y31.715 E5.2727
G1 X-26.624 Y30.697 E5.35758
G1 X-26.855 Y29.665 E5.44199
G1 X-27.012 Y28.599 E5.52801
G1 X-27.089 Y27.547 E5.61221
G1 X-27.1 Y27.009 E5.65516
G1 X-27.1 Y-27.003 E9.96663
G1 X-27.062 Y-28.058 E10.0509
G1 X-26.941 Y-29.147 E10.13836
G1 X-26.753 Y-30.167 E10.22116
G1 X-26.485 Y-31.191 E10.30565
G1 X-26.129 Y-32.236 E10.39377
G1 X-25.724 Y-33.189 E10.47643
G1 X-25.232 Y-34.147 E10.5624
G1 X-24.678 Y-35.054 E10.64724
G1 X-24.056 Y-35.924 E10.73261
G1 X-23.378 Y-36.739 E10.81723
G1 X-22.647 Y-37.497 E10.90129
G1 X-21.838 Y-38.222 E10.98801
G1 X-20.989 Y-38.878 E11.07365
G1 X-20.116 Y-39.456 E11.15723
G1 X-19.178 Y-39.983 E11.24311
G1 X-18.222 Y-40.432 E11.32742
G1 X-17.215 Y-40.817 E11.41348
G1 X-16.197 Y-41.124 E11.49835
G1 X-15.165 Y-41.355 E11.58277
G1 X-14.099 Y-41.512 E11.66878
G1 X-13.047 Y-41.589 E11.75298
G1 X-12.482 Y-41.6 E11.79809
G1 X12.495 Y-41.6 E13.79186
G1 X13.557 Y-41.562 E13.87669
G1 X14.645 Y-41.441 E13.96407
G1 X15.667 Y-41.253 E14.04702
G1 X16.691 Y-40.985 E14.13152
G1 X17.73 Y-40.631 E14.21914
G1 X18.689 Y-40.224 E14.3023
G1 X19.647 Y-39.732 E14.38826
G1 X20.554 Y-39.178 E14.4731
G1 X21.424 Y-38.556 E14.55847
G1 X22.239 Y-37.878 E14.6431
G1 X22.997 Y-37.147 E14.72716
G1 X23.722 Y-36.338 E14.81387
G1 X24.378 Y-35.489 E14.89952
G1 X24.956 Y-34.616 E14.98309
G1 X25.483 Y-33.678 E15.06898
G1 X25.932 Y-32.722 E15.15329
G1 X26.317 Y-31.715 E15.23934
G1 X26.624 Y-30.697 E15.32422
G1 X26.854 Y-29.668 E15.40839
G1 X27.012 Y-28.599 E15.49464
G1 X27.089 Y-27.547 E15.57884
G1 X27.1 Y-27.009 E15.6218
G1 X27.1 Y27.003 E19.93327
G0 F3600 X25.6 Y33.431
G1 F450 X25.6 Y-33.428 E25.27024
G0 F3600 X24 Y-35.978
G1 F450 X24 Y35.992 E31.0152
G0 F3600 X22.4 Y37.719
G1 F450 X22.4 Y-37.722 E37.03723
G0 F3600 X20.8 Y-39.002
G1 F450 X20.8 Y39.003 E43.26392
G0 F3600 X19.2 Y39.971
G1 F450 X19.2 Y-39.961 E49.64444
G0 F3600 X17.6 Y-40.675
G1 F450 X17.6 Y40.67 E56.13775
G0 F3600 X16 Y41.169
G1 F450 X16 Y-41.165 E62.71001
G0 F3600 X14.4 Y-41.468
G1 F450 X14.4 Y41.468 E69.33032
G0 F3600 X12.8 Y41.594
G1 F450 X12.8 Y-41.589 E75.97035
G0 F3600 X11.2 Y-41.6
G1 F450 X11.2 Y41.6 E82.61173
G0 F3600 X9.6 Y41.6
G1 F450 X9.6 Y-41.6 E89.25311
G0 F3600 X8 Y-41.6
G1 F450 X8 Y41.6 E95.8945
G0 F3600 X6.4 Y41.6
G1 F450 X6.4 Y-41.6 E102.53588
G0 F3600 X4.8 Y-41.6
G1 F450 X4.8 Y41.6 E109.17726
G0 F3600 X3.2 Y41.6
G1 F450 X3.2 Y-41.6 E115.81865
G0 F3600 X1.6 Y-41.6
G1 F450 X1.6 Y41.6 E122.46003
G0 F3600 X0.00 Y41.6
G1 F450 X0.00 Y-41.6 E129.10142
G0 F3600 X-1.6 Y-41.6
G1 F450 X-1.6 Y41.6 E135.7428
G0 F3600 X-3.2 Y41.6
G1 F450 X-3.2 Y-41.6 E142.38418
G0 F3600 X-4.8 Y-41.6
G1 F450 X-4.8 Y41.6 E149.02557
G0 F3600 X-6.4 Y41.6
G1 F450 X-6.4 Y-41.6 E155.66695
G0 F3600 X-8 Y-41.6
G1 F450 X-8 Y41.6 E162.30833
G0 F3600 X-9.6 Y41.6
G1 F450 X-9.6 Y-41.6 E168.94972
G0 F3600 X-11.2 Y-41.6
G1 F450 X-11.2 Y41.6 E175.5911
G0 F3600 X-12.8 Y41.589
G1 F450 X-12.8 Y-41.594 E182.23113
G0 F3600 X-14.4 Y-41.468
G1 F450 X-14.4 Y41.468 E188.85144
G0 F3600 X-16 Y41.165
G1 F450 X-16 Y-41.169 E195.42369
G0 F3600 X-17.6 Y-40.67
G1 F450 X-17.6 Y40.675 E201.917
G0 F3600 X-19.2 Y39.961
G1 F450 X-19.2 Y-39.971 E208.29752
G0 F3600 X-20.8 Y-39.004
G1 F450 X-20.8 Y39.002 E214.5243
G0 F3600 X-22.4 Y37.722
G1 F450 X-22.4 Y-37.719 E220.54632
G0 F3600 X-24 Y-35.992
G1 F450 X-24 Y35.978 E226.29128
G0 F3600 X-25.6 Y33.428
G1 F450 X-25.6 Y-33.431 E231.62826
G0 F3600 X27.099 Y0.229
;TIME_ELAPSED:398.035581
;LAYER:-11
M140 S60
G1 F3600 E228.62826
G0 F3600 X27.099 Y0.229 Z0.315
;TYPE:SUPPORT
G1 F3600 E231.62826
G1 F450 X27.099 Y-1.185 E231.66353
G1 X-13.285 Y-41.57 E233.0882
G1 X-13.046 Y-41.588 E233.09418
G1 X-12.481 Y-41.599 E233.10828
G1 X-11.9 Y-41.599 E233.12277
G1 X27.099 Y-2.599 E234.49858
G1 X27.099 Y-4.013 E234.53385
G1 X-10.486 Y-41.599 E235.85978
G1 X-9.072 Y-41.599 E235.89506
G1 X27.099 Y-5.427 E237.1711
G1 X27.099 Y-6.841 E237.20638
G1 X-7.657 Y-41.599 E238.43252
G1 X-6.243 Y-41.599 E238.4678
G1 X27.099 Y-8.256 E239.64404
G1 X27.099 Y-9.67 E239.67931
G1 X-4.829 Y-41.599 E240.80568
G1 X-3.415 Y-41.599 E240.84095
G1 X27.099 Y-11.084 E241.91743
G1 X27.099 Y-12.498 E241.95271
G1 X-2.001 Y-41.599 E242.9793
G1 X-.586 Y-41.599 E243.0146
G1 X27.099 Y-13.913 E243.99128
G1 X27.099 Y-15.327 E244.02655
G1 X0.827 Y-41.599 E244.95337
G1 X2.241 Y-41.599 E244.98864
G1 X27.099 Y-16.741 E245.86558
G1 X27.099 Y-18.155 E245.90085
G1 X3.655 Y-41.599 E246.7279
G1 X5.069 Y-41.599 E246.76317
G1 X27.099 Y-19.569 E247.54034
G1 X27.099 Y-20.984 E247.57564
G1 X6.484 Y-41.599 E248.30289
G1 X7.898 Y-41.599 E248.33816
G1 X27.099 Y-22.398 E249.01552
G1 X27.099 Y-23.812 E249.0508
G1 X9.312 Y-41.599 E249.67828
G1 X10.726 Y-41.599 E249.71355
G1 X27.099 Y-25.226 E250.29116
G1 X27.099 Y-26.64 E250.32643
G1 X12.141 Y-41.599 E250.85413
G0 F3600 X12.494 Y-41.599
G1 F450 X13.557 Y-41.561 E250.88066
G1 X13.597 Y-41.556 E250.88167
G1 X27.048 Y-28.106 E251.35617
G1 X27.011 Y-28.598 E251.36848
G1 X26.854 Y-29.667 E251.39543
G1 X26.841 Y-29.727 E251.39696
G1 X15.237 Y-41.331 E251.80633
G1 X15.666 Y-41.252 E251.81721
G1 X16.691 Y-40.984 E251.84364
G1 X17.157 Y-40.825 E251.85592
G1 X26.338 Y-31.644 E252.1798
G1 X26.317 Y-31.713 E252.1816
G1 X25.931 Y-32.721 E252.20853
G1 X25.483 Y-33.677 E252.23486
G1 X25.18 Y-34.216 E252.25029
G1 X19.694 Y-39.702 E252.44382
G0 F3600 X-14.571 Y-41.441
G1 F450 X27.099 Y0.229 E253.91384
G0 F3600 X27.099 Y1.643
G1 F450 X-15.764 Y-41.22 E255.42595
G1 X-15.164 Y-41.354 E255.44129
G1 X-14.571 Y-41.441 E255.45624
G0 F3600 X-16.876 Y-40.918
G1 F450 X-17.214 Y-40.816 E255.46504
G1 X-17.918 Y-40.546 E255.48385
G1 X27.099 Y4.471 E257.07195
G1 X27.099 Y5.885 E257.10722
G1 X-18.899 Y-40.112 E258.72991
G1 X-19.178 Y-39.982 E258.73759
G1 X-19.821 Y-39.62 E258.75599
G1 X27.099 Y7.3 E260.41122
G1 X27.099 Y8.714 E260.44649
G1 X-20.689 Y-39.074 E262.13235
G1 X-20.989 Y-38.877 E262.1413
G1 X-21.505 Y-38.476 E262.1576
G1 X27.099 Y10.128 E263.87224
G1 X27.099 Y11.542 E263.90751
G1 X-22.273 Y-37.83 E265.64924
G1 X-22.647 Y-37.496 E265.66175
G1 X-22.994 Y-37.136 E265.67422
G1 X27.099 Y12.957 E267.44139
G1 X27.099 Y14.371 E267.47666
G1 X-23.665 Y-36.393 E269.2675
G1 X-24.056 Y-35.923 E269.28275
G1 X-24.286 Y-35.6 E269.29264
G1 X27.099 Y15.785 E271.10538
G1 X27.099 Y17.199 E271.14066
G1 X-24.859 Y-34.758 E272.9736
G1 X-25.232 Y-34.146 E272.99147
G1 X-25.378 Y-33.863 E272.99942
G1 X27.099 Y18.613 E274.85067
G1 X27.099 Y20.028 E274.88597
G1 X-25.841 Y-32.912 E276.75357
G1 X-26.129 Y-32.235 E276.77192
G1 X-26.243 Y-31.9 E276.78075
G1 X27.099 Y21.442 E278.66253
G1 X27.099 Y22.856 E278.6978
G1 X-26.581 Y-30.824 E280.59151
G1 X-26.752 Y-30.166 E280.60847
G1 X-26.844 Y-29.673 E280.62098
G1 X27.099 Y24.27 E282.52396
G1 X27.099 Y25.684 E282.55924
G1 X-27.02 Y-28.434 E284.46841
G1 X-27.061 Y-28.057 E284.47787
G1 X-27.096 Y-27.096 E284.50186
G1 X27.096 Y27.096 E286.41363
G1 X27.061 Y28.057 E286.43762
G1 X27.019 Y28.434 E286.44708
G1 X-27.099 Y-25.684 E288.35624
G1 X-27.099 Y-24.27 E288.39151
G1 X26.843 Y29.672 E290.29446
G1 X26.752 Y30.166 E290.30699
G1 X26.581 Y30.824 E290.32395
G1 X-27.099 Y-22.856 E292.21766
G1 X-27.099 Y-21.442 E292.25293
G1 X26.243 Y31.9 E294.13471
G1 X26.131 Y32.229 E294.14338
G1 X25.841 Y32.912 E294.16189
G1 X-27.099 Y-20.028 E296.02949
G1 X-27.099 Y-18.613 E296.06479
G1 X25.378 Y33.863 E297.91604
G1 X25.243 Y34.125 E297.92339
G1 X24.858 Y34.757 E297.94185
G1 X-27.099 Y-17.199 E299.77476
G1 X-27.099 Y-15.785 E299.81003
G1 X24.287 Y35.601 E301.62281
G1 X24.056 Y35.923 E301.6327
G1 X23.665 Y36.393 E301.64795
G1 X-27.099 Y-14.371 E303.43878
G1 X-27.099 Y-12.957 E303.47406
G1 X22.994 Y37.136 E305.24122
G1 X22.647 Y37.496 E305.2537
G1 X22.273 Y37.83 E305.2662
G1 X-27.099 Y-11.542 E307.00793
G1 X-27.099 Y-10.128 E307.04321
G1 X21.506 Y38.477 E308.75788
G1 X20.994 Y38.873 E308.77403
G1 X20.689 Y39.074 E308.78314
G1 X-27.099 Y-8.714 E310.46899
G1 X-27.099 Y-7.3 E310.50426
G1 X19.821 Y39.62 E312.15949
G1 X19.178 Y39.982 E312.1779
G1 X18.899 Y40.112 E312.18558
G1 X-27.099 Y-5.885 E313.80826
G1 X-27.099 Y-4.471 E313.84353
G1 X17.918 Y40.546 E315.43163
G1 X17.214 Y40.816 E315.45044
G1 X16.876 Y40.918 E315.45925
G1 X-27.099 Y-3.057 E317.01058
G1 X-27.099 Y-1.643 E317.04586
G1 X15.764 Y41.22 E318.55796
G1 X15.164 Y41.354 E318.5733
G1 X14.571 Y41.441 E318.58825
G1 X-27.099 Y-.229 E320.05827
G1 X-27.099 Y1.185 E320.09354
G1 X13.285 Y41.57 E321.51822
G1 X13.046 Y41.588 E321.52419
G1 X12.481 Y41.599 E321.53829
G1 X11.9 Y41.599 E321.55278
G1 X-27.099 Y2.599 E322.9286
G1 X-27.099 Y4.013 E322.96387
G1 X10.486 Y41.599 E324.2898
G1 X9.072 Y41.599 E324.32507
G1 X-27.099 Y5.427 E325.60112
G1 X-27.099 Y6.841 E325.63639
G1 X7.657 Y41.599 E326.86254
G1 X6.243 Y41.599 E326.89781
G1 X-27.099 Y8.256 E328.07406
G1 X-27.099 Y9.67 E328.10933
G1 X4.829 Y41.599 E329.23569
G1 X3.415 Y41.599 E329.27097
G1 X-27.099 Y11.084 E330.34745
G1 X-27.099 Y12.498 E330.38272
G1 X2.001 Y41.599 E331.40932
G1 X0.586 Y41.599 E331.44462
G1 X-27.099 Y13.913 E332.4213
G1 X-27.099 Y15.327 E332.45657
G1 X-.827 Y41.599 E333.38339
G1 X-2.241 Y41.599 E333.41866
G1 X-27.099 Y16.741 E334.29559
G1 X-27.099 Y18.155 E334.33086
G1 X-3.655 Y41.599 E335.15791
G1 X-5.069 Y41.599 E335.19319
G1 X-27.099 Y19.569 E335.97035
G1 X-27.099 Y20.984 E336.00565
G1 X-6.484 Y41.599 E336.7329
G1 X-7.898 Y41.599 E336.76817
G1 X-27.099 Y22.398 E337.44554
G1 X-27.099 Y23.812 E337.48081
G1 X-9.312 Y41.599 E338.1083
G1 X-10.726 Y41.599 E338.14357
G1 X-27.099 Y25.226 E338.72117
G1 X-27.099 Y26.64 E338.75644
G1 X-12.141 Y41.599 E339.28415
G1 X-12.494 Y41.599 E339.29295
G1 X-13.557 Y41.561 E339.31948
G1 X-13.597 Y41.556 E339.32049
G1 X-27.048 Y28.106 E339.79499
G1 X-27.011 Y28.598 E339.8073
G1 X-26.855 Y29.663 E339.83415
G1 X-26.841 Y29.727 E339.83578
G1 X-15.237 Y41.331 E340.24515
G1 X-15.666 Y41.252 E340.25603
G1 X-16.691 Y40.984 E340.28246
G1 X-17.157 Y40.825 E340.29474
G1 X-26.338 Y31.644 E340.61862
G1 X-26.317 Y31.713 E340.62042
G1 X-25.931 Y32.721 E340.64735
G1 X-25.483 Y33.677 E340.67368
G1 X-25.18 Y34.216 E340.68911
G1 X-19.694 Y39.702 E340.88264
G0 F3600 X27.099 Y3.057
G1 F450 X27.099 Y1.643 E340.91791
G0 F3600 X27.099 Y3.057
G1 F450 X-16.876 Y-40.918 E342.46925
G0 F3600 X27.3 Y0.00
;TIME_ELAPSED:993.514332
;LAYER:-10
G1 F3600 E339.46925
G0 F3600 X27.3 Y0.00 Z0.365
G1 F3600 E342.46925
G1 F600 X27.3 Y0.4 E342.47258
G1 X-27.3 Y0.399 E342.92658
G1 X-27.3 Y0.799 E342.9299
G1 X27.3 Y0.8 E343.38391
G1 X27.3 Y1.2 E343.38723
G1 X-27.3 Y1.199 E343.84123
G1 X-27.3 Y1.599 E343.84456
G1 X27.3 Y1.6 E344.29856
G1 X27.3 Y2 E344.30188
G1 X-27.3 Y1.999 E344.75589
G1 X-27.3 Y2.399 E344.75921
G1 X27.3 Y2.4 E345.21321
G1 X27.3 Y2.8 E345.21654
G1 X-27.3 Y2.799 E345.67054
G1 X-27.3 Y3.199 E345.67387
G1 X27.3 Y3.2 E346.12787
G1 X27.3 Y3.6 E346.13119
G1 X-27.3 Y3.599 E346.58519
G1 X-27.3 Y3.999 E346.58852
G1 X27.3 Y4 E347.04252
G1 X27.3 Y4.4 E347.04585
G1 X-27.3 Y4.399 E347.49985
G1 X-27.3 Y4.799 E347.50317
G1 X27.3 Y4.8 E347.95717
G1 X27.3 Y5.2 E347.9605
G1 X-27.3 Y5.199 E348.4145
G1 X-27.3 Y5.599 E348.41783
G1 X27.3 Y5.6 E348.87183
G1 X27.3 Y6 E348.87515
G1 X-27.3 Y5.999 E349.32915
G1 X-27.3 Y6.399 E349.33248
G1 X27.3 Y6.4 E349.78648
G1 X27.3 Y6.8 E349.78981
G1 X-27.3 Y6.799 E350.24381
G1 X-27.3 Y7.199 E350.24713
G1 X27.3 Y7.2 E350.70113
G1 X27.3 Y7.6 E350.70446
G1 X-27.3 Y7.599 E351.15846
G1 X-27.3 Y7.999 E351.16179
G1 X27.3 Y8 E351.61579
G1 X27.3 Y8.4 E351.61911
G1 X-27.3 Y8.399 E352.07312
G1 X-27.3 Y8.799 E352.07644
G1 X27.3 Y8.8 E352.53044
G1 X27.3 Y9.2 E352.53377
G1 X-27.3 Y9.199 E352.98777
G1 X-27.3 Y9.599 E352.9911
G1 X27.3 Y9.6 E353.4451
G1 X27.3 Y10 E353.44842
G1 X-27.3 Y9.999 E353.90242
G1 X-27.3 Y10.399 E353.90575
G1 X27.3 Y10.4 E354.35975
G1 X27.3 Y10.8 E354.36308
G1 X-27.3 Y10.799 E354.81708
G1 X-27.3 Y11.199 E354.8204
G1 X27.3 Y11.2 E355.2744
G1 X27.3 Y11.6 E355.27773
G1 X-27.3 Y11.599 E355.73173
G1 X-27.3 Y11.999 E355.73506
G1 X27.3 Y12 E356.18906
G1 X27.3 Y12.4 E356.19238
G1 X-27.3 Y12.399 E356.64638
G1 X-27.3 Y12.799 E356.64971
G1 X27.3 Y12.8 E357.10371
G1 X27.3 Y13.2 E357.10704
G1 X-27.3 Y13.199 E357.56104
G1 X-27.3 Y13.599 E357.56436
G1 X27.3 Y13.6 E358.01836
G1 X27.3 Y14 E358.02169
G1 X-27.3 Y13.999 E358.47569
G1 X-27.3 Y14.399 E358.47902
G1 X27.3 Y14.4 E358.93302
G1 X27.3 Y14.8 E358.93634
G1 X-27.3 Y14.799 E359.39035
G1 X-27.3 Y15.199 E359.39367
G1 X27.3 Y15.2 E359.84767
G1 X27.3 Y15.6 E359.851
G1 X-27.3 Y15.599 E360.305
G1 X-27.3 Y15.999 E360.30832
G1 X27.3 Y16 E360.76233
G1 X27.3 Y16.4 E360.76565
G1 X-27.3 Y16.4 E361.21965
G1 X-27.3 Y16.8 E361.22298
G1 X27.3 Y16.8 E361.67698
G1 X27.3 Y17.2 E361.68031
G1 X-27.3 Y17.2 E362.13431
G1 X-27.3 Y17.6 E362.13763
G1 X27.3 Y17.6 E362.59163
G1 X27.3 Y18 E362.59496
G1 X-27.3 Y18 E363.04896
G1 X-27.3 Y18.4 E363.05229
G1 X27.3 Y18.4 E363.50629
G1 X27.3 Y18.8 E363.50961
G1 X-27.3 Y18.8 E363.96361
G1 X-27.3 Y19.2 E363.96694
G1 X27.3 Y19.2 E364.42094
G1 X27.3 Y19.6 E364.42427
G1 X-27.3 Y19.6 E364.87827
G1 X-27.3 Y20 E364.88159
G1 X27.3 Y20 E365.33559
G1 X27.3 Y20.4 E365.33892
G1 X-27.3 Y20.4 E365.79292
G1 X-27.3 Y20.8 E365.79625
G1 X27.3 Y20.8 E366.25025
G1 X27.3 Y21.2 E366.25357
G1 X-27.3 Y21.2 E366.70757
G1 X-27.3 Y21.6 E366.7109
G1 X27.3 Y21.6 E367.1649
G1 X27.3 Y22 E367.16823
G1 X-27.3 Y22 E367.62223
G1 X-27.3 Y22.4 E367.62555
G1 X27.3 Y22.4 E368.07956
G1 X27.3 Y22.8 E368.08288
G1 X-27.3 Y22.8 E368.53688
G1 X-27.3 Y23.2 E368.54021
G1 X27.3 Y23.2 E368.99421
G1 X27.3 Y23.6 E368.99754
G1 X-27.3 Y23.6 E369.45154
G1 X-27.3 Y24 E369.45486
G1 X27.3 Y24 E369.90886
G1 X27.3 Y24.4 E369.91219
G1 X-27.3 Y24.4 E370.36619
G1 X-27.3 Y24.8 E370.36952
G1 X27.3 Y24.8 E370.82352
G1 X27.3 Y25.2 E370.82684
G1 X-27.3 Y25.2 E371.28084
G1 X-27.3 Y25.6 E371.28417
G1 X27.3 Y25.6 E371.73817
G1 X27.3 Y26 E371.7415
G1 X-27.3 Y26 E372.1955
G1 X-27.3 Y26.4 E372.19882
G1 X27.3 Y26.4 E372.65282
G1 X27.3 Y26.8 E372.65615
G1 X-27.3 Y26.8 E373.11015
G1 X-27.3 Y27.009 E373.11189
G1 X-27.297 Y27.2 E373.11348
G1 X27.293 Y27.2 E373.56739
G1 X27.278 Y27.6 E373.57072
G1 X-27.287 Y27.6 E374.02443
G1 X-27.258 Y28 E374.02777
G1 X27.264 Y28 E374.48112
G1 X27.262 Y28.067 E374.48168
G1 X27.225 Y28.4 E374.48446
