;FLAVOR:Marlin
;TIME:8254
;Filament used: 1.70381m
;Layer height: 0.05
;Generated with Cura_SteamEngine 1.2.3
M140 S60
M104 S200
M109 S200
G28
G1 Z50.00 F400
G92 E0
G1 F200 E3
G92 E0
M132 X Y Z A
M907 X100 Y100 Z50 A100
;LAYER_COUNT:317
;LAYER:-12
G1 F3600 E-3
M107
M204 S2000
G0 F3600 X17.982 Y19.6 Z0.24
G1 F3600 E0
G1 F450 X-17.995 Y19.6 E2.87184
G1 X-19.057 Y19.562 E2.95667
G1 X-20.145 Y19.441 E3.04405
G1 X-21.167 Y19.253 E3.127
G1 X-22.191 Y18.985 E3.21149
G1 X-23.23 Y18.631 E3.29911
G1 X-24.189 Y18.224 E3.38227
G1 X-25.147 Y17.732 E3.46824
G1 X-26.054 Y17.178 E3.55308
G1 X-26.924 Y16.556 E3.63845
G1 X-27.739 Y15.878 E3.72307
G1 X-28.497 Y15.147 E3.80713
G1 X-29.222 Y14.338 E3.89385
G1 X-29.878 Y13.489 E3.97949
G1 X-30.456 Y12.616 E4.06307
G1 X-30.983 Y11.678 E4.14895
G1 X-31.432 Y10.722 E4.23326
G1 X-31.817 Y9.715 E4.31932
G1 X-32.124 Y8.697 E4.4042
G1 X-32.355 Y7.665 E4.48861
G1 X-32.512 Y6.599 E4.57462
G1 X-32.589 Y5.547 E4.65882
G1 X-32.6 Y5.009 E4.70178
G1 X-32.6 Y-5.003 E5.50098
G1 X-32.562 Y-6.058 E5.58525
G1 X-32.441 Y-7.147 E5.67271
G1 X-32.253 Y-8.167 E5.75551
G1 X-31.985 Y-9.191 E5.84
G1 X-31.629 Y-10.236 E5.92812
G1 X-31.224 Y-11.189 E6.01078
G1 X-30.732 Y-12.147 E6.09675
G1 X-30.178 Y-13.054 E6.18158
G1 X-29.556 Y-13.924 E6.26695
G1 X-28.878 Y-14.739 E6.35158
G1 X-28.147 Y-15.497 E6.43564
G1 X-27.338 Y-16.222 E6.52236
G1 X-26.489 Y-16.878 E6.608
G1 X-25.616 Y-17.456 E6.69158
G1 X-24.678 Y-17.983 E6.77746
G1 X-23.722 Y-18.432 E6.86177
G1 X-22.715 Y-18.817 E6.94783
G1 X-21.697 Y-19.124 E7.0327
G1 X-20.665 Y-19.355 E7.11712
G1 X-19.599 Y-19.512 E7.20313
G1 X-18.547 Y-19.589 E7.28733
G1 X-17.982 Y-19.6 E7.33244
G1 X17.995 Y-19.6 E10.20428
G1 X19.057 Y-19.562 E10.28911
G1 X20.145 Y-19.441 E10.37649
G1 X21.167 Y-19.253 E10.45944
G1 X22.191 Y-18.985 E10.54393
G1 X23.23 Y-18.631 E10.63155
G1 X24.189 Y-18.224 E10.71471
G1 X25.147 Y-17.732 E10.80068
G1 X26.054 Y-17.178 E10.88552
G1 X26.924 Y-16.556 E10.97089
G1 X27.739 Y-15.878 E11.05551
G1 X28.497 Y-15.147 E11.13957
G1 X29.222 Y-14.338 E11.22629
G1 X29.878 Y-13.489 E11.31193
G1 X30.456 Y-12.616 E11.39551
G1 X30.983 Y-11.678 E11.48139
G1 X31.432 Y-10.722 E11.5657
G1 X31.817 Y-9.715 E11.65176
G1 X32.124 Y-8.697 E11.73664
G1 X32.354 Y-7.668 E11.8208
G1 X32.512 Y-6.599 E11.90706
G1 X32.589 Y-5.547 E11.99126
G1 X32.6 Y-5.009 E12.03422
G1 X32.6 Y5.003 E12.83342
G1 X32.562 Y6.058 E12.91769
G1 X32.441 Y7.145 E13.00499
G1 X32.253 Y8.167 E13.08794
G1 X31.985 Y9.191 E13.17243
G1 X31.631 Y10.23 E13.26005
G1 X31.224 Y11.189 E13.34321
G1 X30.743 Y12.126 E13.42729
G1 X30.171 Y13.064 E13.51499
G1 X29.556 Y13.924 E13.59938
G1 X28.878 Y14.739 E13.68401
G1 X28.147 Y15.497 E13.76807
G1 X27.338 Y16.222 E13.85478
G1 X26.494 Y16.874 E13.93992
G1 X25.616 Y17.456 E14.024
G1 X24.678 Y17.983 E14.10988
G1 X23.722 Y18.432 E14.19419
G1 X22.715 Y18.817 E14.28025
G1 X21.697 Y19.124 E14.36513
G1 X20.665 Y19.355 E14.44955
G1 X19.599 Y19.512 E14.53556
G1 X18.547 Y19.589 E14.61976
G1 X17.982 Y19.6 E14.66486
G0 F3600 X17.6 Y19.6
G1 F450 X17.6 Y-19.6 E17.79398
G0 F3600 X16 Y-19.6
G1 F450 X16 Y19.6 E20.92309
G0 F3600 X14.4 Y19.6
G1 F450 X14.4 Y-19.6 E24.05221
G0 F3600 X12.8 Y-19.6
G1 F450 X12.8 Y19.6 E27.18132
G0 F3600 X11.2 Y19.6
G1 F450 X11.2 Y-19.6 E30.31043
G0 F3600 X9.6 Y-19.6
G1 F450 X9.6 Y19.6 E33.43955
G0 F3600 X8 Y19.6
G1 F450 X8 Y-19.6 E36.56866
G0 F3600 X6.4 Y-19.6
G1 F450 X6.4 Y19.6 E39.69777
G0 F3600 X4.8 Y19.6
G1 F450 X4.8 Y-19.6 E42.82689
G0 F3600 X3.2 Y-19.6
G1 F450 X3.2 Y19.6 E45.956
G0 F3600 X1.6 Y19.6
G1 F450 X1.6 Y-19.6 E49.08511
G0 F3600 X0.00 Y-19.6
G1 F450 X0.00 Y19.6 E52.21423
G0 F3600 X-1.6 Y19.6
G1 F450 X-1.6 Y-19.6 E55.34334
G0 F3600 X-3.2 Y-19.6
G1 F450 X-3.2 Y19.6 E58.47245
G0 F3600 X-4.8 Y19.6
G1 F450 X-4.8 Y-19.6 E61.60157
G0 F3600 X-6.4 Y-19.6
G1 F450 X-6.4 Y19.6 E64.73068
G0 F3600 X-8 Y19.6
G1 F450 X-8 Y-19.6 E67.85979
G0 F3600 X-9.6 Y-19.6
G1 F450 X-9.6 Y19.6 E70.98891
G0 F3600 X-11.2 Y19.6
G1 F450 X-11.2 Y-19.6 E74.11802
G0 F3600 X-12.8 Y-19.6
G1 F450 X-12.8 Y19.6 E77.24714
G0 F3600 X-14.4 Y19.6
G1 F450 X-14.4 Y-19.6 E80.37625
G0 F3600 X-16 Y-19.6
G1 F450 X-16 Y19.6 E83.50536
G0 F3600 X-17.6 Y19.6
G1 F450 X-17.6 Y-19.6 E86.63448
G0 F3600 X-19.2 Y-19.542
G1 F450 X-19.2 Y19.546 E89.75465
G0 F3600 X-20.8 Y19.32
G1 F450 X-20.8 Y-19.325 E92.83946
G0 F3600 X-22.4 Y-18.912
G1 F450 X-22.4 Y18.913 E95.85881
G0 F3600 X-24 Y18.304
G1 F450 X-24 Y-18.302 E98.78086
G0 F3600 X-25.6 Y-17.465
G1 F450 X-25.6 Y17.455 E101.56833
G0 F3600 X-27.2 Y16.326
G1 F450 X-27.2 Y-16.329 E104.17499
G0 F3600 X-28.8 Y-14.82
G1 F450 X-28.8 Y14.808 E106.54003
G0 F3600 X-30.4 Y12.7
G1 F450 X-30.4 Y-12.691 E108.56685
G0 F3600 X-32 Y-9.134
G1 F450 X-32 Y9.108 E110.023
G0 F3600 X19.2 Y19.542
G1 F450 X19.2 Y-19.546 E113.14318
G0 F3600 X20.8 Y-19.32
G1 F450 X20.8 Y19.325 E116.22799
G0 F3600 X22.4 Y18.912
G1 F450 X22.4 Y-18.913 E119.24734
G0 F3600 X24 Y-18.304
G1 F450 X24 Y18.302 E122.16939
G0 F3600 X25.6 Y17.465
G1 F450 X25.6 Y-17.455 E124.95686
G0 F3600 X27.2 Y-16.326
G1 F450 X27.2 Y16.329 E127.56352
G0 F3600 X28.8 Y14.82
G1 F450 X28.8 Y-14.808 E129.92855
G0 F3600 X30.4 Y-12.7
G1 F450 X30.4 Y12.689 E131.95521
G0 F3600 X32 Y9.134
G1 F450 X32 Y-9.108 E133.41137
G0 F3600 X-.2 Y19.598
;TIME_ELAPSED:234.840280
;LAYER:-11
M140 S60
G1 F3600 E130.41137
G0 F3600 X-.2 Y19.598 Z0.315
;TYPE:SUPPORT
G1 F3600 E133.41137
G1 F450 X-1.614 Y19.598 E133.44664
G1 X-31.575 Y-10.362 E134.50358
G1 X-31.628 Y-10.236 E134.50699
G1 X-31.942 Y-9.314 E134.53129
G1 X-3.028 Y19.598 E135.55127
G1 X-4.442 Y19.598 E135.58654
G1 X-32.244 Y-8.202 E136.5673
G1 X-32.252 Y-8.167 E136.56819
G1 X-32.439 Y-7.146 E136.59409
G1 X-32.456 Y-7.001 E136.59773
G1 X-5.856 Y19.598 E137.5361
G1 X-7.271 Y19.598 E137.57139
G1 X-32.574 Y-5.704 E138.46401
G1 X-32.599 Y-5.002 E138.48153
G1 X-32.599 Y-4.315 E138.49867
G1 X-8.685 Y19.598 E139.34228
G1 X-10.099 Y19.598 E139.37755
G1 X-32.599 Y-2.901 E140.17128
G1 X-32.599 Y-1.487 E140.20656
G1 X-11.513 Y19.598 E140.95041
G1 X-12.928 Y19.598 E140.9857
G1 X-32.599 Y-0.072 E141.67963
G1 X-32.599 Y1.341 E141.71488
G1 X-14.342 Y19.598 E142.35894
G1 X-15.756 Y19.598 E142.39422
G1 X-32.599 Y2.755 E142.9884
G1 X-32.599 Y4.169 E143.02367
G1 X-17.17 Y19.598 E143.56797
G1 X-17.995 Y19.598 E143.58855
G1 X-18.606 Y19.576 E143.6038
G1 X-32.584 Y5.598 E144.09691
G1 X-32.511 Y6.598 E144.12193
G1 X-32.427 Y7.17 E144.13635
G1 X-20.16 Y19.437 E144.5691
G1 X-21.166 Y19.253 E144.59461
G1 X-21.969 Y19.042 E144.61532
G1 X-32.04 Y8.971 E144.9706
G1 X-31.816 Y9.714 E144.98996
G1 X-31.431 Y10.721 E145.01685
G1 X-31.189 Y11.236 E145.03105
G1 X-24.217 Y18.208 E145.277
G0 F3600 X-.2 Y19.598
G1 F450 X-31.143 Y-11.344 E146.36858
G1 X-30.731 Y-12.147 E146.3911
G1 X-30.655 Y-12.271 E146.39473
G1 X1.214 Y19.598 E147.51899
G1 X2.628 Y19.598 E147.55426
G1 X-30.114 Y-13.143 E148.70931
G1 X-29.555 Y-13.924 E148.73327
G1 X-29.521 Y-13.965 E148.7346
G1 X4.042 Y19.598 E149.91862
G1 X5.456 Y19.598 E149.95389
G1 X-28.878 Y-14.736 E151.16512
G0 F3600 X-28.876 Y-14.738
G1 F450 X-28.184 Y-15.456 E151.18999
G1 X6.87 Y19.598 E152.42662
G1 X8.285 Y19.598 E152.46191
G1 X-27.441 Y-16.127 E153.72223
G1 X-27.337 Y-16.221 E153.72572
G1 X-26.651 Y-16.752 E153.74736
G1 X9.699 Y19.598 E155.02971
G1 X11.113 Y19.598 E155.06498
G1 X-25.811 Y-17.326 E156.36758
G1 X-25.614 Y-17.456 E156.37346
G1 X-24.917 Y-17.846 E156.39339
G1 X12.527 Y19.598 E157.71432
G1 X13.942 Y19.598 E157.74962
G1 X-23.97 Y-18.314 E159.08707
G1 X-23.721 Y-18.432 E159.09394
G1 X-22.963 Y-18.721 E159.11418
G1 X15.356 Y19.598 E160.46599
G1 X16.77 Y19.598 E160.50126
G1 X-21.892 Y-19.064 E161.86516
G1 X-21.696 Y-19.123 E161.87027
G1 X-20.749 Y-19.335 E161.89448
G1 X18.181 Y19.595 E163.26784
G1 X18.547 Y19.588 E163.27697
G1 X19.517 Y19.517 E163.30123
G1 X-19.517 Y-19.517 E164.67826
G1 X-18.547 Y-19.588 E164.70252
G1 X-18.181 Y-19.595 E164.71166
G1 X20.749 Y19.335 E166.08502
G1 X21.696 Y19.123 E166.10922
G1 X21.892 Y19.064 E166.11433
G1 X-16.77 Y-19.598 E167.47824
G1 X-15.356 Y-19.598 E167.51351
G1 X22.963 Y18.721 E168.86531
G1 X23.721 Y18.432 E168.88555
G1 X23.97 Y18.314 E168.89242
G1 X-13.942 Y-19.598 E170.22987
G1 X-12.527 Y-19.598 E170.26517
G1 X24.917 Y17.846 E171.58611
G1 X25.614 Y17.456 E171.60603
G1 X25.81 Y17.325 E171.61191
G1 X-11.113 Y-19.598 E172.91447
G1 X-9.699 Y-19.598 E172.94974
G1 X26.65 Y16.751 E174.23205
G1 X27.337 Y16.221 E174.2537
G1 X27.441 Y16.127 E174.25719
G1 X-8.285 Y-19.598 E175.51751
G1 X-6.87 Y-19.598 E175.5528
G1 X28.184 Y15.456 E176.78943
G1 X28.876 Y14.738 E176.8143
G1 X28.878 Y14.736 E176.81437
G1 X-5.456 Y-19.598 E178.0256
G1 X-4.042 Y-19.598 E178.06087
G1 X29.521 Y13.965 E179.2449
G1 X29.555 Y13.924 E179.24623
G1 X30.114 Y13.143 E179.27018
G1 X-2.628 Y-19.598 E180.42523
G1 X-1.214 Y-19.598 E180.4605
G1 X30.654 Y12.269 E181.58471
G1 X30.742 Y12.125 E181.58892
G1 X31.143 Y11.344 E181.61082
G1 X0.2 Y-19.598 E182.7024
G1 X1.614 Y-19.598 E182.73768
G1 X31.575 Y10.361 E183.7946
G1 X31.63 Y10.23 E183.79814
G1 X31.942 Y9.314 E183.82228
G1 X3.028 Y-19.598 E184.84226
G1 X4.442 Y-19.598 E184.87754
G1 X32.244 Y8.202 E185.85829
G1 X32.252 Y8.167 E185.85919
G1 X32.439 Y7.145 E185.8851
G1 X32.456 Y7 E185.88875
G1 X5.856 Y-19.598 E186.8271
G1 X7.271 Y-19.598 E186.86239
G1 X32.574 Y5.704 E187.75501
G1 X32.599 Y5.002 E187.77253
G1 X32.599 Y4.315 E187.78967
G1 X8.685 Y-19.598 E188.63328
G1 X10.099 Y-19.598 E188.66855
G1 X32.599 Y2.901 E189.46228
G1 X32.599 Y1.487 E189.49756
G1 X11.513 Y-19.598 E190.2414
G1 X12.928 Y-19.598 E190.2767
G1 X32.599 Y0.072 E190.97063
G1 X32.599 Y-1.341 E191.00588
G1 X14.342 Y-19.598 E191.64994
G1 X15.756 Y-19.598 E191.68522
G1 X32.599 Y-2.755 E192.2794
G1 X32.599 Y-4.169 E192.31467
G1 X17.17 Y-19.598 E192.85897
G0 F3600 X17.995 Y-19.598
G1 F450 X18.606 Y-19.576 E192.87422
G1 X32.584 Y-5.598 E193.36733
G1 X32.511 Y-6.598 E193.39235
G1 X32.426 Y-7.171 E193.4068
G1 X20.16 Y-19.437 E193.83951
G1 X21.166 Y-19.253 E193.86502
G1 X21.969 Y-19.042 E193.88573
G1 X32.04 Y-8.971 E194.24102
G1 X31.816 Y-9.714 E194.26037
G1 X31.431 Y-10.721 E194.28727
G1 X31.189 Y-11.236 E194.30146
G1 X24.217 Y-18.208 E194.54742
G0 F3600 X-28.876 Y-14.738
G1 F450 X-28.878 Y-14.736 E194.54749
G0 F3600 X20.375 Y19.6
;TIME_ELAPSED:564.217917
;LAYER:-10
G1 F3600 E191.54749
G0 F3600 X20.375 Y19.6 Z0.365
G1 F3600 E194.54749
G1 F600 X20.693 Y19.553 E194.55016
G1 X21.759 Y19.315 E194.55924
G1 X22.14 Y19.2 E194.56255
G1 X-22.16 Y19.2 E194.93091
G1 X-22.255 Y19.175 E194.93172
G1 X-23.29 Y18.823 E194.94081
G1 X-23.345 Y18.8 E194.94131
G1 X23.321 Y18.8 E195.32934
G1 X23.795 Y18.619 E195.33356
G1 X24.261 Y18.4 E195.33784
G1 X-24.284 Y18.4 E195.74149
G1 X-25.064 Y18 E195.74878
G1 X25.057 Y18 E196.16554
G1 X25.707 Y17.635 E196.17174
G1 X25.759 Y17.6 E196.17226
G1 X-25.745 Y17.6 E196.60052
G1 X-26.17 Y17.34 E196.60466
G1 X-26.367 Y17.2 E196.60667
G1 X26.363 Y17.2 E197.04512
G1 X26.615 Y17.033 E197.04764
G1 X26.916 Y16.8 E197.0508
G1 X-26.927 Y16.8 E197.49851
G1 X-27.043 Y16.717 E197.49969
G1 X-27.424 Y16.4 E197.50381
G1 X27.433 Y16.4 E197.95995
G1 X27.466 Y16.375 E197.9603
G1 X27.884 Y16 E197.96497
G1 X-27.9 Y15.999 E198.42881
G1 X-28.315 Y15.599 E198.4336
G1 X28.324 Y15.6 E198.90456
G1 X28.709 Y15.2 E198.90918
G1 X-28.72 Y15.199 E199.3867
G1 X-29.078 Y14.799 E199.39116
G1 X29.085 Y14.8 E199.87479
G1 X29.418 Y14.4 E199.87912
G1 X-29.427 Y14.399 E200.36842
G1 X-29.736 Y13.999 E200.37262
G1 X29.747 Y14 E200.86722
G1 X30.032 Y13.6 E200.87131
G1 X-30.043 Y13.599 E201.37083
G1 X-30.309 Y13.199 E201.37483
G1 X30.318 Y13.2 E201.87894
G1 X30.34 Y13.17 E201.87925
G1 X30.565 Y12.8 E201.88285
G1 X-30.574 Y12.799 E202.39122
G1 X-30.635 Y12.706 E202.39215
G1 X-30.808 Y12.399 E202.39508
G1 X30.809 Y12.4 E202.90743
G1 X30.921 Y12.217 E202.90921
G1 X31.032 Y12 E202.91124
G1 X-31.033 Y11.999 E203.42731
G1 X-31.158 Y11.776 E203.42944
G1 X-31.242 Y11.599 E203.43106
G1 X31.237 Y11.6 E203.95058
G1 X31.405 Y11.274 E203.95363
G1 X31.436 Y11.2 E203.9543
G1 X-31.429 Y11.199 E204.47702
G1 X-31.617 Y10.799 E204.4807
G1 X31.606 Y10.8 E205.0064
G1 X31.775 Y10.4 E205.01001
G1 X-31.77 Y10.399 E205.53839
G1 X-31.923 Y9.999 E205.54195
G1 X31.921 Y10 E206.07281
G1 X32.057 Y9.6 E206.07633
G1 X-32.062 Y9.599 E206.60948
G1 X-32.182 Y9.199 E206.61295
G1 X32.189 Y9.2 E207.1482
G1 X32.293 Y8.8 E207.15163
G1 X-32.303 Y8.799 E207.68875
G1 X-32.315 Y8.758 E207.68911
G1 X-32.396 Y8.399 E207.69217
G1 X32.398 Y8.4 E208.23093
G1 X32.445 Y8.223 E208.23245
G1 X32.486 Y8 E208.23434
G1 X-32.485 Y7.999 E208.77458
G1 X-32.553 Y7.692 E208.77719
G1 X-32.567 Y7.599 E208.77797
G1 X32.559 Y7.6 E209.3195
G1 X32.633 Y7.2 E209.32288
G1 X-32.626 Y7.199 E209.86551
G1 X-32.686 Y6.799 E209.86887
G1 X32.681 Y6.8 E210.4124
G1 X32.725 Y6.4 E210.41575
G1 X-32.728 Y6.399 E210.95999
G1 X-32.758 Y5.999 E210.96333
G1 X32.764 Y6 E211.50815
G1 X32.778 Y5.6 E211.51147
G1 X-32.787 Y5.599 E212.05665
G1 X-32.789 Y5.56 E212.05697
G1 X-32.797 Y5.199 E212.05998
G1 X32.793 Y5.2 E212.60536
G1 X32.8 Y5.01 E212.60694
G1 X32.8 Y4.8 E212.60869
G1 X-32.8 Y4.799 E213.15415
G1 X-32.8 Y4.399 E213.15748
G1 X32.8 Y4.4 E213.70294
G1 X32.8 Y4 E213.70627
G1 X-32.8 Y3.999 E214.25174
G1 X-32.8 Y3.599 E214.25506
G1 X32.8 Y3.6 E214.80053
G1 X32.8 Y3.2 E214.80385
G1 X-32.8 Y3.199 E215.34932
G1 X-32.8 Y2.799 E215.35265
G1 X32.8 Y2.8 E215.89811
G1 X32.8 Y2.4 E215.90144
G1 X-32.8 Y2.399 E216.44691
G1 X-32.8 Y1.999 E216.45023
G1 X32.8 Y2 E216.9957
G1 X32.8 Y1.6 E216.99902
G1 X-32.8 Y1.599 E217.54449
G1 X-32.8 Y1.199 E217.54782
G1 X32.8 Y1.2 E218.09328
G1 X32.8 Y0.8 E218.09661
G1 X-32.8 Y0.799 E218.64207
G1 X-32.8 Y0.399 E218.6454
G1 X32.8 Y0.4 E219.19087
G1 X32.8 Y0.00 E219.19419
G1 X-32.8 Y0.00 E219.73966
G1 X-32.8 Y-.4 E219.74298
G1 X32.8 Y-.399 E220.28845
G1 X32.8 Y-.799 E220.29178
G1 X-32.8 Y-.8 E220.83724
G1 X-32.8 Y-1.2 E220.84057
G1 X32.8 Y-1.199 E221.38604
G1 X32.8 Y-1.599 E221.38936
G1 X-32.8 Y-1.6 E221.93483
G1 X-32.8 Y-2 E221.93815
G1 X32.8 Y-1.999 E222.48362
G1 X32.8 Y-2.399 E222.48695
G1 X-32.8 Y-2.4 E223.03241
G1 X-32.8 Y-2.8 E223.03574
G1 X32.8 Y-2.799 E223.5812
G1 X32.8 Y-3.199 E223.58453
G1 X-32.8 Y-3.2 E224.13
G1 X-32.8 Y-3.6 E224.13332
G1 X32.8 Y-3.599 E224.67879
G1 X32.8 Y-3.999 E224.68211
G1 X-32.8 Y-4 E225.22758
G1 X-32.8 Y-4.4 E225.23091
G1 X32.8 Y-4.399 E225.77637
G1 X32.8 Y-4.799 E225.7797
G1 X-32.8 Y-4.8 E226.32517
G1 X-32.8 Y-5.01 E226.32691
G1 X-32.793 Y-5.2 E226.32849
G1 X32.797 Y-5.199 E226.87388
G1 X32.789 Y-5.56 E226.87688
G1 X32.787 Y-5.599 E226.8772
G1 X-32.778 Y-5.6 E227.42238
G1 X-32.764 Y-6 E227.42571
G1 X32.758 Y-5.999 E227.97052
G1 X32.728 Y-6.399 E227.97386
G1 X-32.725 Y-6.4 E228.5181
G1 X-32.681 Y-6.8 E228.52145
G1 X32.686 Y-6.799 E229.06498
G1 X32.626 Y-7.199 E229.06834
G1 X-32.633 Y-7.2 E229.61097
G1 X-32.559 Y-7.6 E229.61435
G1 X32.567 Y-7.599 E230.15588
G1 X32.552 Y-7.697 E230.1567
G1 X32.485 Y-7.999 E230.15928
G1 X-32.486 Y-8 E230.69951
G1 X-32.445 Y-8.223 E230.7014
G1 X-32.398 Y-8.4 E230.70292
G1 X32.395 Y-8.399 E231.24168
G1 X32.314 Y-8.761 E231.24476
G1 X32.303 Y-8.799 E231.24509
G1 X-32.294 Y-8.8 E231.78222
G1 X-32.189 Y-9.2 E231.78565
G1 X32.182 Y-9.199 E232.3209
G1 X32.062 Y-9.599 E232.32437
G1 X-32.057 Y-9.6 E232.85753
G1 X-31.921 Y-10 E232.86104
G1 X31.923 Y-9.999 E233.3919
G1 X31.77 Y-10.399 E233.39546
G1 X-31.775 Y-10.4 E233.92384
G1 X-31.606 Y-10.8 E233.92745
G1 X31.617 Y-10.799 E234.45316
G1 X31.429 Y-11.199 E234.45683
G1 X-31.436 Y-11.2 E234.97955
G1 X-31.405 Y-11.274 E234.98022
G1 X-31.237 Y-11.6 E234.98327
G1 X31.241 Y-11.599 E235.50278
G1 X31.156 Y-11.779 E235.50443
